;FLAVOR:Repetier
;TIME:7425
;MINX:13.865
;MINY:29.677
;MINZ:0.3
;MAXX:106.43
;MAXY:97.107
;MAXZ:18.5
;Generated with Cura_SteamEngine 4.13.0
M190 S66
M104 S210
M109 S210
M82 ;absolute extrusion mode
G28 ;Home
G1 Z15.0 F6000 ;Move the platform down 15mm
;Prime the extruder
G92 E0
G1 F200 E3
G92 E0
G92 E0
G92 E0
G1 F1500 E-6.5
;LAYER_COUNT:183
;LAYER:0
M107
G0 F3600 X74.43 Y43.277 Z0.3
;TYPE:SKIRT
G1 F1500 E0
G1 F1800 X74.43 Y47.677 E0.21952
G1 X87.367 Y47.677 E0.86495
G1 X87.458 Y47.468 E0.87632
G1 X87.745 Y46.977 E0.90469
G1 X87.687 Y46.894 E0.90974
G1 X87.365 Y46.294 E0.94372
G1 X87.116 Y45.66 E0.9777
G1 X86.943 Y45.001 E1.01169
G1 X86.849 Y44.327 E1.04564
G1 X86.83 Y43.86 E1.06896
G1 X86.83 Y43.277 E1.09805
G1 X74.43 Y43.277 E1.71669
G0 F3600 X74.03 Y42.877
G1 F1800 X74.03 Y48.077 E1.97611
G1 X87.626 Y48.077 E2.65442
G1 X87.858 Y47.567 E2.68237
G1 X88.2 Y47.006 E2.71515
G1 X88.229 Y46.972 E2.71738
G1 X88.004 Y46.645 E2.73719
G1 X87.7 Y46.063 E2.76994
G1 X87.469 Y45.448 E2.80272
G1 X87.314 Y44.809 E2.83552
G1 X87.23 Y43.86 E2.88306
G1 X87.23 Y42.877 E2.9321
G1 X74.03 Y42.877 E3.59065
G0 F3600 X73.63 Y42.477
G1 F1800 X73.63 Y48.477 E3.88999
G1 X87.909 Y48.477 E4.60237
G1 X87.986 Y48.242 E4.61471
G1 X88.257 Y47.67 E4.64629
G1 X88.597 Y47.138 E4.67779
G1 X88.731 Y46.982 E4.68805
G1 X88.677 Y46.921 E4.69211
G1 X88.322 Y46.398 E4.72365
G1 X88.036 Y45.834 E4.7552
G1 X87.824 Y45.239 E4.78671
G1 X87.688 Y44.621 E4.81828
G1 X87.63 Y43.86 E4.85635
G1 X87.63 Y42.477 E4.92535
G1 X73.63 Y42.477 E5.62382
G0 F3600 X73.23 Y42.077
G1 F1800 X73.23 Y48.877 E5.96307
G1 X88.195 Y48.877 E6.70968
G1 X88.385 Y48.321 E6.73899
G1 X88.656 Y47.778 E6.76927
G1 X88.995 Y47.275 E6.79953
G1 X89.258 Y46.977 E6.81936
G1 X88.978 Y46.657 E6.84057
G1 X88.642 Y46.152 E6.87083
G1 X88.375 Y45.608 E6.90107
G1 X88.182 Y45.033 E6.93133
G1 X88.066 Y44.438 E6.96157
G1 X88.03 Y43.86 E6.99046
G1 X88.03 Y42.077 E7.07942
G1 X73.23 Y42.077 E7.81779
G0 F3600 X72.83 Y41.677
G1 F1800 X72.83 Y49.277 E8.19696
G1 X88.52 Y49.277 E8.97973
G1 X88.589 Y48.949 E8.99646
G1 X88.785 Y48.404 E9.02535
G1 X89.054 Y47.891 E9.05425
G1 X89.391 Y47.42 E9.08314
G1 X89.777 Y47.007 E9.11135
G1 X89.811 Y46.978 E9.11358
G1 X89.66 Y46.83 E9.12412
G1 X89.28 Y46.393 E9.15302
G1 X88.963 Y45.908 E9.18192
G1 X88.716 Y45.384 E9.21082
G1 X88.544 Y44.831 E9.23972
G1 X88.449 Y44.259 E9.26865
G1 X88.43 Y43.86 E9.28857
G1 X88.43 Y41.677 E9.39748
G1 X72.83 Y41.677 E10.17577
G0 F3600 X72.43 Y41.277
G1 F1800 X72.43 Y49.677 E10.59485
G1 X88.86 Y49.677 E11.41455
G1 X88.87 Y49.544 E11.4212
G1 X88.989 Y49.006 E11.44869
G1 X89.185 Y48.491 E11.47618
G1 X89.453 Y48.01 E11.50365
G1 X89.943 Y47.407 E11.54241
G1 X90.434 Y46.968 E11.57527
G1 X89.943 Y46.547 E11.60754
G1 X89.583 Y46.13 E11.63503
G1 X89.286 Y45.666 E11.66251
G1 X89.06 Y45.163 E11.69002
G1 X88.909 Y44.633 E11.71752
G1 X88.83 Y43.86 E11.75628
G1 X88.83 Y41.277 E11.88515
G1 X72.43 Y41.277 E12.70335
G0 F3600 X72.03 Y40.877
G1 F1800 X72.03 Y50.077 E13.16234
G1 X89.231 Y50.077 E14.0205
G1 X89.27 Y49.574 E14.04567
G1 X89.389 Y49.067 E14.07165
G1 X89.584 Y48.584 E14.09764
G1 X89.85 Y48.136 E14.12363
G1 X90.226 Y47.69 E14.15274
G1 X90.343 Y47.573 E14.16099
G1 X90.739 Y47.234 E14.187
G1 X91.156 Y46.975 E14.21149
G1 X90.789 Y46.757 E14.23278
G1 X90.343 Y46.381 E14.26189
G1 X90.226 Y46.264 E14.27014
G1 X89.887 Y45.868 E14.29615
G1 X89.612 Y45.426 E14.32212
G1 X89.408 Y44.946 E14.34814
G1 X89.28 Y44.441 E14.37413
G1 X89.23 Y43.86 E14.40323
G1 X89.23 Y40.877 E14.55205
G1 X72.03 Y40.877 E15.41016
G0 F3600 X71.63 Y40.477
G1 F1800 X71.63 Y50.477 E15.90906
G1 X89.63 Y50.477 E16.80709
G1 X89.67 Y49.606 E16.85059
G1 X89.789 Y49.131 E16.87502
G1 X89.983 Y48.682 E16.89942
G1 X90.248 Y48.27 E16.92386
G1 X90.626 Y47.856 E16.95183
G1 X90.999 Y47.539 E16.97625
G1 X91.419 Y47.287 E17.00068
G1 X91.874 Y47.107 E17.0251
G1 X92.352 Y47.003 E17.0495
G1 X92.747 Y46.977 E17.06925
G1 X92.259 Y46.937 E17.09368
G1 X91.784 Y46.818 E17.11811
G1 X91.335 Y46.624 E17.14251
G1 X90.923 Y46.359 E17.16695
G1 X90.509 Y45.981 E17.19492
G1 X90.192 Y45.608 E17.21934
G1 X89.94 Y45.188 E17.24378
G1 X89.76 Y44.733 E17.26819
G1 X89.656 Y44.255 E17.29259
G1 X89.63 Y43.86 E17.31234
G1 X89.63 Y40.477 E17.48112
G1 X71.63 Y40.477 E18.37915
G0 F3600 X71.23 Y40.077
G1 F1800 X71.23 Y50.877 E18.91796
G1 X90.03 Y50.877 E19.8559
G1 X90.03 Y50.094 E19.89496
G1 X90.07 Y49.64 E19.9177
G1 X90.188 Y49.2 E19.94043
G1 X90.382 Y48.788 E19.96314
G1 X90.792 Y48.256 E19.99665
G1 X91.258 Y47.846 E20.02762
G1 X91.653 Y47.619 E20.05035
G1 X92.081 Y47.464 E20.07306
G1 X92.747 Y47.377 E20.10657
G1 X98.013 Y47.377 E20.36929
G1 X98.467 Y47.417 E20.39203
G1 X98.907 Y47.535 E20.41476
G1 X99.319 Y47.729 E20.43748
G1 X99.851 Y48.139 E20.47098
G1 X100.261 Y48.605 E20.50195
G1 X100.488 Y49 E20.52468
G1 X100.643 Y49.428 E20.54739
G1 X100.73 Y50.094 E20.5809
G1 X100.73 Y50.295 E20.59093
G1 X101.373 Y50.672 E20.62811
G1 X101.809 Y51.021 E20.65598
G1 X102.283 Y51.517 E20.6902
G1 X102.656 Y52.081 E20.72394
G1 X102.913 Y52.617 E20.7536
G1 X103.104 Y53.198 E20.78411
G1 X103.214 Y53.944 E20.82173
G1 X103.23 Y54.233 E20.83617
G1 X103.23 Y62.36 E21.24163
G1 X103.19 Y62.814 E21.26436
G1 X103.072 Y63.254 E21.28709
G1 X102.878 Y63.666 E21.30981
G1 X102.461 Y64.206 E21.34385
G1 X101.992 Y64.615 E21.3749
G1 X101.596 Y64.84 E21.39762
G1 X101.167 Y64.993 E21.42034
G1 X100.507 Y65.077 E21.45354
G1 X99.97 Y65.076 E21.48033
G1 X99.516 Y65.035 E21.50307
G1 X98.993 Y64.876 E21.53034
G1 X98.679 Y64.99 E21.54701
G1 X98.013 Y65.077 E21.58052
G1 X86.763 Y65.077 E22.14178
G1 X86.48 Y65.119 E22.15605
G1 X86.305 Y65.264 E22.16739
G1 X86.251 Y65.392 E22.17432
G1 X86.23 Y65.61 E22.18525
G1 X86.229 Y74.481 E22.62783
G1 X86.167 Y75.194 E22.66353
G1 X86.038 Y75.764 E22.69269
G1 X85.76 Y76.5 E22.73194
G1 X85.402 Y77.097 E22.76667
G1 X85.025 Y77.569 E22.79681
G1 X84.525 Y78.051 E22.83145
G1 X83.894 Y78.472 E22.8693
G1 X83.349 Y78.735 E22.89949
G1 X82.922 Y78.884 E22.92205
G1 X82.345 Y79.014 E22.95156
G1 X81.622 Y79.077 E22.98777
G1 X74.626 Y79.076 E23.3368
G1 X73.913 Y79.014 E23.37251
G1 X73.339 Y78.884 E23.40187
G1 X72.606 Y78.606 E23.44098
G1 X72.011 Y78.249 E23.4756
G1 X71.543 Y77.876 E23.50545
G1 X71.239 Y77.573 E23.52687
G1 X70.878 Y77.123 E23.55565
G1 X70.509 Y76.517 E23.59105
G1 X70.231 Y75.798 E23.62951
G1 X70.093 Y75.193 E23.66047
G1 X70.03 Y74.471 E23.69662
G1 X70.03 Y65.602 E24.1391
G1 X69.991 Y65.331 E24.15276
G1 X69.842 Y65.152 E24.16438
G1 X69.714 Y65.098 E24.17131
G1 X69.497 Y65.077 E24.18219
G1 X63.247 Y65.077 E24.494
G1 X62.793 Y65.037 E24.51674
G1 X62.264 Y64.877 E24.54431
G1 X61.952 Y64.99 E24.56087
G1 X61.286 Y65.077 E24.59437
G1 X60.747 Y65.077 E24.62127
G1 X60.293 Y65.037 E24.644
G1 X59.853 Y64.919 E24.66673
G1 X59.441 Y64.725 E24.68945
G1 X58.909 Y64.315 E24.72296
G1 X58.499 Y63.849 E24.75393
G1 X58.272 Y63.454 E24.77665
G1 X58.117 Y63.026 E24.79936
G1 X58.03 Y62.36 E24.83287
G1 X58.031 Y54.223 E25.23883
G1 X58.089 Y53.559 E25.27208
G1 X58.226 Y52.964 E25.30255
G1 X58.476 Y52.313 E25.33734
G1 X58.798 Y51.771 E25.36879
G1 X59.181 Y51.29 E25.39946
G1 X59.627 Y50.86 E25.43037
G1 X60.233 Y50.453 E25.46679
G1 X60.53 Y50.296 E25.48355
G1 X60.53 Y35.594 E26.21704
G1 X60.57 Y35.14 E26.23978
G1 X60.688 Y34.7 E26.2625
G1 X60.882 Y34.288 E26.28522
G1 X61.292 Y33.756 E26.31873
G1 X61.758 Y33.346 E26.3497
G1 X62.153 Y33.119 E26.37243
G1 X62.581 Y32.964 E26.39514
G1 X63.247 Y32.877 E26.42865
G1 X98.013 Y32.877 E28.16313
G1 X98.467 Y32.917 E28.18587
G1 X98.907 Y33.035 E28.20859
G1 X99.319 Y33.229 E28.23131
G1 X99.851 Y33.639 E28.26482
G1 X100.261 Y34.105 E28.29579
G1 X100.488 Y34.5 E28.31852
G1 X100.643 Y34.928 E28.34123
G1 X100.73 Y35.594 E28.37474
G1 X100.73 Y43.86 E28.78713
G1 X100.69 Y44.314 E28.80987
G1 X100.572 Y44.754 E28.8326
G1 X100.378 Y45.166 E28.85531
G1 X99.968 Y45.698 E28.88882
G1 X99.502 Y46.108 E28.91979
G1 X99.107 Y46.335 E28.94252
G1 X98.679 Y46.49 E28.96523
G1 X98.013 Y46.577 E28.99874
G1 X92.747 Y46.577 E29.26146
G1 X92.293 Y46.537 E29.2842
G1 X91.853 Y46.419 E29.30693
G1 X91.441 Y46.225 E29.32965
G1 X90.909 Y45.815 E29.36315
G1 X90.499 Y45.349 E29.39412
G1 X90.272 Y44.954 E29.41685
G1 X90.117 Y44.526 E29.43956
G1 X90.03 Y43.86 E29.47307
G1 X90.03 Y40.077 E29.6618
G1 X71.23 Y40.077 E30.59974
G0 F3600 X70.83 Y39.677
G1 F1800 X70.83 Y51.277 E31.17847
G1 X90.43 Y51.277 E32.15631
G1 X90.43 Y50.094 E32.21533
G1 X90.47 Y49.677 E32.23623
G1 X90.588 Y49.275 E32.25714
G1 X90.781 Y48.903 E32.27804
G1 X91.191 Y48.421 E32.30961
G1 X91.515 Y48.155 E32.33053
G1 X91.882 Y47.954 E32.3514
G1 X92.282 Y47.827 E32.37234
G1 X92.747 Y47.777 E32.39567
G1 X98.013 Y47.777 E32.6584
G1 X98.43 Y47.817 E32.6793
G1 X98.832 Y47.935 E32.7002
G1 X99.204 Y48.128 E32.72111
G1 X99.686 Y48.538 E32.75268
G1 X99.952 Y48.862 E32.77359
G1 X100.153 Y49.229 E32.79447
G1 X100.28 Y49.629 E32.8154
G1 X100.33 Y50.094 E32.83874
G1 X100.355 Y50.571 E32.86257
G1 X100.832 Y50.802 E32.88901
G1 X101.528 Y51.304 E32.93182
G1 X101.969 Y51.765 E32.96365
G1 X102.316 Y52.292 E32.99513
G1 X102.535 Y52.749 E33.02041
G1 X102.716 Y53.295 E33.04911
G1 X102.816 Y53.988 E33.08404
G1 X102.83 Y54.233 E33.09629
G1 X102.83 Y62.36 E33.50174
G1 X102.79 Y62.777 E33.52264
G1 X102.672 Y63.179 E33.54354
G1 X102.479 Y63.551 E33.56445
G1 X102.061 Y64.039 E33.59651
G1 X101.737 Y64.305 E33.61742
G1 X101.368 Y64.504 E33.63834
G1 X100.968 Y64.629 E33.65925
G1 X100.508 Y64.677 E33.68232
G1 X99.971 Y64.676 E33.70911
G1 X99.554 Y64.635 E33.73002
G1 X98.996 Y64.435 E33.75959
G1 X98.478 Y64.627 E33.78715
G1 X98.013 Y64.677 E33.81048
G1 X86.734 Y64.677 E34.3732
G1 X86.326 Y64.747 E34.39385
G1 X86.071 Y64.92 E34.40922
G1 X85.901 Y65.172 E34.42439
G1 X85.83 Y65.581 E34.4451
G1 X85.829 Y74.481 E34.88912
G1 X85.769 Y75.15 E34.92263
G1 X85.66 Y75.633 E34.94733
G1 X85.402 Y76.321 E34.98399
G1 X85.063 Y76.884 E35.01678
G1 X84.743 Y77.287 E35.04245
G1 X84.272 Y77.74 E35.07506
G1 X83.681 Y78.134 E35.11049
G1 X83.217 Y78.357 E35.13618
G1 X82.79 Y78.506 E35.15874
G1 X82.302 Y78.616 E35.1837
G1 X81.622 Y78.677 E35.21776
G1 X74.626 Y78.676 E35.56679
G1 X73.957 Y78.616 E35.6003
G1 X73.471 Y78.506 E35.62516
G1 X72.785 Y78.248 E35.66173
G1 X72.224 Y77.91 E35.6944
G1 X71.825 Y77.592 E35.71986
G1 X71.521 Y77.289 E35.74127
G1 X71.216 Y76.909 E35.76558
G1 X70.867 Y76.338 E35.79897
G1 X70.609 Y75.665 E35.83493
G1 X70.491 Y75.15 E35.86128
G1 X70.43 Y74.471 E35.8953
G1 X70.43 Y65.585 E36.33862
G1 X70.362 Y65.176 E36.35931
G1 X70.188 Y64.918 E36.37483
G1 X69.93 Y64.746 E36.3903
G1 X69.526 Y64.677 E36.41075
G1 X63.247 Y64.677 E36.72401
G1 X62.83 Y64.637 E36.74491
G1 X62.268 Y64.436 E36.77469
G1 X61.751 Y64.627 E36.80218
G1 X61.286 Y64.677 E36.82552
G1 X60.747 Y64.677 E36.85241
G1 X60.33 Y64.637 E36.87331
G1 X59.928 Y64.519 E36.89421
G1 X59.556 Y64.326 E36.91512
G1 X59.074 Y63.916 E36.94669
G1 X58.808 Y63.592 E36.9676
G1 X58.607 Y63.225 E36.98848
G1 X58.48 Y62.825 E37.00942
G1 X58.43 Y62.36 E37.03275
G1 X58.431 Y54.223 E37.4387
G1 X58.487 Y53.603 E37.46976
G1 X58.603 Y53.097 E37.49566
G1 X58.834 Y52.492 E37.52797
G1 X59.138 Y51.982 E37.55759
G1 X59.463 Y51.572 E37.58369
G1 X59.881 Y51.169 E37.61266
G1 X60.444 Y50.792 E37.64647
G1 X60.906 Y50.571 E37.67202
G1 X60.93 Y50.563 E37.67328
G1 X60.93 Y35.594 E38.42008
G1 X60.97 Y35.177 E38.44098
G1 X61.088 Y34.775 E38.46189
G1 X61.281 Y34.403 E38.48279
G1 X61.691 Y33.921 E38.51436
G1 X62.015 Y33.655 E38.53528
G1 X62.382 Y33.454 E38.55616
G1 X62.782 Y33.327 E38.57709
G1 X63.247 Y33.277 E38.60043
G1 X98.013 Y33.277 E40.33491
G1 X98.43 Y33.317 E40.35581
G1 X98.832 Y33.435 E40.37671
G1 X99.204 Y33.628 E40.39762
G1 X99.686 Y34.038 E40.42919
G1 X99.952 Y34.362 E40.4501
G1 X100.153 Y34.729 E40.47098
G1 X100.28 Y35.129 E40.49192
G1 X100.33 Y35.594 E40.51525
G1 X100.33 Y43.86 E40.92764
G1 X100.29 Y44.277 E40.94854
G1 X100.172 Y44.679 E40.96944
G1 X99.979 Y45.051 E40.99035
G1 X99.569 Y45.533 E41.02192
G1 X99.245 Y45.799 E41.04284
G1 X98.878 Y46 E41.06371
G1 X98.478 Y46.127 E41.08465
G1 X98.013 Y46.177 E41.10798
G1 X92.747 Y46.177 E41.3707
G1 X92.33 Y46.137 E41.3916
G1 X91.928 Y46.019 E41.41251
G1 X91.556 Y45.826 E41.43341
G1 X91.074 Y45.416 E41.46498
G1 X90.808 Y45.092 E41.4859
G1 X90.607 Y44.725 E41.50677
G1 X90.48 Y44.325 E41.52771
G1 X90.43 Y43.86 E41.55104
G1 X90.43 Y39.677 E41.75974
G1 X70.83 Y39.677 E42.73758
G0 F3600 X70.43 Y39.277
G1 F1800 X70.43 Y51.677 E43.35622
G1 X90.83 Y51.677 E44.37398
G1 X90.83 Y50.094 E44.45296
G1 X90.87 Y49.717 E44.47187
G1 X90.988 Y49.357 E44.49077
G1 X91.178 Y49.03 E44.50964
G1 X91.474 Y48.704 E44.53161
G1 X91.769 Y48.466 E44.55052
G1 X92.107 Y48.295 E44.56942
G1 X92.473 Y48.198 E44.58831
G1 X92.747 Y48.177 E44.60202
G1 X98.013 Y48.177 E44.86474
G1 X98.39 Y48.217 E44.88365
G1 X98.75 Y48.335 E44.90255
G1 X99.077 Y48.525 E44.92142
G1 X99.403 Y48.821 E44.94339
G1 X99.641 Y49.116 E44.9623
G1 X99.812 Y49.454 E44.9812
G1 X99.909 Y49.82 E45.00009
G1 X99.93 Y50.094 E45.0138
G1 X99.93 Y50.847 E45.05137
G1 X100.438 Y51.039 E45.07846
G1 X100.944 Y51.347 E45.10801
G1 X101.51 Y51.85 E45.14579
G1 X101.785 Y52.196 E45.16784
G1 X102.058 Y52.649 E45.19423
G1 X102.281 Y53.235 E45.22551
G1 X102.376 Y53.649 E45.2467
G1 X102.43 Y54.233 E45.27596
G1 X102.43 Y62.36 E45.68142
G1 X102.39 Y62.737 E45.70033
G1 X102.272 Y63.097 E45.71923
G1 X102.082 Y63.424 E45.7381
G1 X101.779 Y63.755 E45.76049
G1 X101.484 Y63.992 E45.77937
G1 X101.145 Y64.162 E45.79829
G1 X100.778 Y64.257 E45.8172
G1 X100.509 Y64.277 E45.83066
G1 X99.972 Y64.276 E45.85745
G1 X99.595 Y64.235 E45.87637
G1 X99.235 Y64.117 E45.89527
G1 X98.991 Y63.988 E45.90904
G1 X98.653 Y64.159 E45.92794
G1 X98.287 Y64.256 E45.94683
G1 X98.013 Y64.277 E45.96054
G1 X86.715 Y64.277 E46.5242
G1 X86.395 Y64.309 E46.54024
G1 X85.967 Y64.486 E46.56335
G1 X85.639 Y64.815 E46.58653
G1 X85.461 Y65.243 E46.60965
G1 X85.43 Y65.562 E46.62564
G1 X85.429 Y74.481 E47.07061
G1 X85.371 Y75.107 E47.10198
G1 X85.134 Y75.928 E47.14461
G1 X84.949 Y76.313 E47.16592
G1 X84.605 Y76.84 E47.19732
G1 X84.158 Y77.306 E47.22953
G1 X83.826 Y77.571 E47.25073
G1 X83.317 Y77.88 E47.28043
G1 X82.658 Y78.129 E47.31558
G1 X81.816 Y78.267 E47.35815
G1 X81.622 Y78.277 E47.36784
G1 X74.626 Y78.276 E47.71687
G1 X74 Y78.218 E47.74824
G1 X73.176 Y77.98 E47.79103
G1 X72.792 Y77.794 E47.81231
G1 X72.259 Y77.444 E47.84413
G1 X71.803 Y77.006 E47.87567
G1 X71.315 Y76.318 E47.91775
G1 X71.128 Y75.934 E47.93906
G1 X70.932 Y75.349 E47.96984
G1 X70.841 Y74.666 E48.00422
G1 X70.83 Y74.471 E48.01396
G1 X70.83 Y65.567 E48.45819
G1 X70.798 Y65.237 E48.47473
G1 X70.621 Y64.816 E48.49751
G1 X70.288 Y64.483 E48.52101
G1 X69.867 Y64.309 E48.54373
G1 X69.545 Y64.277 E48.55988
G1 X63.247 Y64.277 E48.87408
G1 X62.87 Y64.237 E48.893
G1 X62.51 Y64.119 E48.9119
G1 X62.264 Y63.988 E48.9258
G1 X61.926 Y64.159 E48.9447
G1 X61.56 Y64.256 E48.96359
G1 X61.286 Y64.277 E48.9773
G1 X60.747 Y64.277 E49.00419
G1 X60.37 Y64.237 E49.02311
G1 X60.01 Y64.119 E49.04201
G1 X59.683 Y63.929 E49.06088
G1 X59.357 Y63.633 E49.08284
G1 X59.119 Y63.338 E49.10176
G1 X58.948 Y63 E49.12065
G1 X58.851 Y62.634 E49.13954
G1 X58.83 Y62.36 E49.15325
G1 X58.831 Y54.223 E49.55921
G1 X58.884 Y53.648 E49.58802
G1 X58.98 Y53.23 E49.60942
G1 X59.192 Y52.671 E49.63924
G1 X59.477 Y52.194 E49.66696
G1 X59.746 Y51.855 E49.68855
G1 X60.136 Y51.478 E49.71562
G1 X60.656 Y51.132 E49.74678
G1 X61.037 Y50.949 E49.76786
G1 X61.33 Y50.847 E49.78334
G1 X61.33 Y35.594 E50.54432
G1 X61.37 Y35.217 E50.56323
G1 X61.488 Y34.857 E50.58213
G1 X61.678 Y34.53 E50.601
G1 X61.974 Y34.204 E50.62297
G1 X62.269 Y33.966 E50.64188
G1 X62.607 Y33.795 E50.66078
G1 X62.973 Y33.698 E50.67967
G1 X63.247 Y33.677 E50.69338
G1 X98.013 Y33.677 E52.42786
G1 X98.39 Y33.717 E52.44677
G1 X98.75 Y33.835 E52.46568
G1 X99.077 Y34.025 E52.48454
G1 X99.403 Y34.321 E52.50651
G1 X99.641 Y34.616 E52.52542
G1 X99.812 Y34.954 E52.54432
G1 X99.909 Y35.32 E52.56321
G1 X99.93 Y35.594 E52.57692
G1 X99.93 Y43.86 E52.98931
G1 X99.89 Y44.237 E53.00823
G1 X99.772 Y44.597 E53.02713
G1 X99.582 Y44.924 E53.046
G1 X99.286 Y45.25 E53.06796
G1 X98.991 Y45.488 E53.08687
G1 X98.653 Y45.659 E53.10577
