;FLAVOR:Repetier
;TIME:5989
;MINX:33.09
;MINY:23.145
;MINZ:0.3
;MAXX:89.45
;MAXY:88.495
;MAXZ:29
;Generated with Cura_SteamEngine 4.13.0
M190 S66
M104 S210
M109 S210
M82 ;absolute extrusion mode
G28 ;Home
G1 Z15.0 F6000 ;Move the platform down 15mm
;Prime the extruder
G92 E0
G1 F200 E3
G92 E0
G92 E0
G92 E0
G1 F1500 E-6.5
;LAYER_COUNT:288
;LAYER:0
M107
G0 F3600 X34.062 Y25.933 Z0.3
;TYPE:SKIRT
G1 F1500 E0
G1 F1800 X34.472 Y25.389 E0.03399
G1 X34.943 Y24.898 E0.06793
G1 X35.468 Y24.464 E0.10191
G1 X36.04 Y24.095 E0.13587
G1 X36.652 Y23.796 E0.16986
G1 X37.294 Y23.571 E0.20379
G1 X37.959 Y23.422 E0.23779
G1 X38.89 Y23.347 E0.28439
G1 X39.609 Y23.347 E0.32026
G1 X40.174 Y23.314 E0.3485
G1 X42.111 Y23.313 E0.44514
G1 X42.648 Y23.203 E0.47248
G1 X43.326 Y23.145 E0.50643
G1 X44.007 Y23.167 E0.54043
G1 X44.68 Y23.269 E0.57439
G1 X45.337 Y23.448 E0.60836
G1 X45.646 Y23.57 E0.62493
G1 X46.316 Y23.689 E0.65888
G1 X46.968 Y23.886 E0.69286
G1 X47.592 Y24.158 E0.72682
G1 X48.18 Y24.502 E0.76081
G1 X48.724 Y24.912 E0.7948
G1 X49.215 Y25.383 E0.82874
G1 X49.649 Y25.908 E0.86272
G1 X50.018 Y26.48 E0.89668
G1 X50.317 Y27.092 E0.93067
G1 X50.542 Y27.734 E0.9646
G1 X50.691 Y28.399 E0.9986
G1 X50.766 Y29.33 E1.0452
G1 X50.766 Y34.059 E1.28113
G1 X50.726 Y34.739 E1.31512
G1 X50.607 Y35.409 E1.34907
G1 X50.41 Y36.061 E1.38305
G1 X50.138 Y36.685 E1.41701
G1 X49.794 Y37.273 E1.451
G1 X49.384 Y37.817 E1.48498
G1 X49.07 Y38.144 E1.5076
G1 X49.07 Y39.795 E1.58997
G1 X49.035 Y40.395 E1.61995
G1 X73.518 Y40.395 E2.84141
G1 X73.47 Y39.795 E2.87144
G1 X73.47 Y38.145 E2.95376
G1 X73.325 Y38.006 E2.96378
G1 X72.891 Y37.481 E2.99777
G1 X72.522 Y36.909 E3.03173
G1 X72.223 Y36.297 E3.06571
G1 X71.998 Y35.655 E3.09965
G1 X71.849 Y34.99 E3.13365
G1 X71.774 Y34.059 E3.18025
G1 X71.774 Y29.33 E3.41618
G1 X71.814 Y28.65 E3.45016
G1 X71.933 Y27.98 E3.48411
G1 X72.13 Y27.328 E3.51809
G1 X72.402 Y26.704 E3.55205
G1 X72.746 Y26.116 E3.58604
G1 X73.156 Y25.572 E3.62002
G1 X73.627 Y25.081 E3.65397
G1 X74.152 Y24.647 E3.68795
G1 X74.724 Y24.278 E3.72191
G1 X75.336 Y23.979 E3.75589
G1 X75.978 Y23.754 E3.78983
G1 X76.643 Y23.605 E3.82383
G1 X76.856 Y23.588 E3.83449
G1 X77.267 Y23.427 E3.85652
G1 X77.926 Y23.255 E3.89049
G1 X78.6 Y23.161 E3.92445
G1 X79.281 Y23.147 E3.95843
G1 X79.959 Y23.213 E3.99241
G1 X80.421 Y23.314 E4.01601
G1 X82.151 Y23.313 E4.10232
G1 X82.712 Y23.346 E4.13035
G1 X83.65 Y23.346 E4.17715
G1 X84.33 Y23.386 E4.21114
G1 X85 Y23.505 E4.24508
G1 X85.652 Y23.702 E4.27907
G1 X86.276 Y23.974 E4.31303
G1 X86.864 Y24.318 E4.34701
G1 X87.408 Y24.728 E4.381
G1 X87.899 Y25.199 E4.41494
G1 X88.333 Y25.724 E4.44893
G1 X88.702 Y26.296 E4.48289
G1 X89.001 Y26.908 E4.51687
G1 X89.226 Y27.55 E4.55081
G1 X89.375 Y28.215 E4.58481
G1 X89.45 Y29.146 E4.63141
G1 X89.45 Y34.242 E4.88565
G1 X89.41 Y34.922 E4.91963
G1 X89.291 Y35.592 E4.95358
G1 X89.094 Y36.244 E4.98756
G1 X88.822 Y36.868 E5.02152
G1 X88.478 Y37.456 E5.05551
G1 X88.07 Y37.997 E5.08931
G1 X88.07 Y39.802 E5.17937
G1 X88.03 Y40.482 E5.21335
G1 X87.911 Y41.152 E5.2473
G1 X87.714 Y41.804 E5.28128
G1 X87.442 Y42.428 E5.31524
G1 X87.098 Y43.016 E5.34923
G1 X87.063 Y43.063 E5.35215
G1 X87.213 Y43.278 E5.36523
G1 X87.535 Y43.878 E5.3992
G1 X87.784 Y44.512 E5.43318
G1 X87.957 Y45.171 E5.46718
G1 X88.051 Y45.845 E5.50113
G1 X88.07 Y46.312 E5.52445
G1 X88.069 Y61.698 E6.29206
G1 X88.031 Y62.36 E6.32514
G1 X87.994 Y62.682 E6.34131
G1 X87.854 Y63.447 E6.38011
G1 X87.703 Y63.952 E6.4064
G1 X87.6 Y64.247 E6.42199
G1 X87.302 Y64.949 E6.46004
G1 X87.025 Y65.44 E6.48817
G1 X86.856 Y65.709 E6.50402
G1 X86.462 Y66.262 E6.53789
G1 X86.034 Y66.74 E6.5699
G1 X85.816 Y66.958 E6.58528
G1 X85.356 Y67.371 E6.61613
G1 X84.788 Y67.779 E6.65102
G1 X84.521 Y67.947 E6.66675
G1 X84.006 Y68.236 E6.69622
G1 X83.329 Y68.522 E6.73288
G1 X83.032 Y68.626 E6.74858
G1 X82.502 Y68.784 E6.77617
G1 X81.757 Y68.919 E6.81395
G1 X81.435 Y68.956 E6.83012
G1 X80.774 Y68.994 E6.86315
G1 X79.88 Y68.994 E6.90775
G1 X79.88 Y72.567 E7.08601
G1 X79.862 Y73.029 E7.10908
G1 X79.801 Y73.793 E7.14731
G1 X79.772 Y74.066 E7.16101
G1 X79.655 Y74.708 E7.19357
G1 X79.472 Y75.466 E7.23247
G1 X79.19 Y76.33 E7.27781
G1 X78.888 Y77.057 E7.31709
G1 X78.472 Y77.871 E7.3627
G1 X78.061 Y78.539 E7.40182
G1 X77.54 Y79.257 E7.44608
G1 X77.035 Y79.851 E7.48498
G1 X76.716 Y80.196 E7.50842
G1 X71.585 Y85.324 E7.87034
G1 X71.24 Y85.645 E7.89385
G1 X70.643 Y86.153 E7.93295
G1 X69.926 Y86.674 E7.97717
G1 X69.262 Y87.083 E8.01608
G1 X68.446 Y87.501 E8.06182
G1 X67.712 Y87.806 E8.10148
G1 X66.839 Y88.09 E8.14728
G1 X66.072 Y88.274 E8.18663
G1 X65.177 Y88.416 E8.23184
G1 X64.407 Y88.477 E8.27037
G1 X63.949 Y88.495 E8.29324
G1 X58.59 Y88.495 E8.5606
G1 X58.126 Y88.476 E8.58377
G1 X57.354 Y88.414 E8.62241
G1 X57.083 Y88.386 E8.636
G1 X56.438 Y88.268 E8.66872
G1 X55.686 Y88.086 E8.70732
G1 X54.819 Y87.803 E8.75282
G1 X54.092 Y87.5 E8.79211
G1 X53.281 Y87.084 E8.83758
G1 X52.609 Y86.67 E8.87696
G1 X51.891 Y86.148 E8.92125
G1 X51.299 Y85.644 E8.96004
G1 X50.957 Y85.329 E8.98324
G1 X45.83 Y80.201 E9.34501
G1 X45.505 Y79.851 E9.36884
G1 X45 Y79.257 E9.40773
G1 X44.479 Y78.539 E9.45199
G1 X44.068 Y77.871 E9.49112
G1 X43.652 Y77.057 E9.53673
G1 X43.35 Y76.33 E9.576
G1 X43.067 Y75.464 E9.62146
G1 X42.881 Y74.692 E9.66107
G1 X42.738 Y73.787 E9.70679
G1 X42.678 Y73.023 E9.74502
G1 X42.66 Y72.569 E9.76769
G1 X42.66 Y68.994 E9.94604
G1 X41.766 Y68.994 E9.99065
G1 X41.107 Y68.956 E10.02358
G1 X40.784 Y68.919 E10.0398
G1 X40.017 Y68.779 E10.0787
G1 X39.501 Y68.624 E10.10558
G1 X39.205 Y68.52 E10.12123
G1 X38.514 Y68.226 E10.15869
G1 X37.992 Y67.93 E10.18863
G1 X37.711 Y67.751 E10.20525
G1 X37.159 Y67.352 E10.23923
G1 X36.744 Y66.978 E10.26711
G1 X36.519 Y66.755 E10.28291
G1 X36.024 Y66.197 E10.32012
G1 X35.657 Y65.672 E10.35208
G1 X35.496 Y65.412 E10.36734
G1 X35.229 Y64.932 E10.39474
G1 X34.941 Y64.249 E10.43172
G1 X34.837 Y63.951 E10.44747
G1 X34.681 Y63.427 E10.47475
G1 X34.546 Y62.68 E10.51262
G1 X34.508 Y62.348 E10.52929
G1 X34.47 Y61.688 E10.56227
G1 X34.47 Y46.312 E11.32938
G1 X34.51 Y45.632 E11.36337
G1 X34.629 Y44.962 E11.39732
G1 X34.826 Y44.31 E11.4313
G1 X35.098 Y43.686 E11.46526
G1 X35.442 Y43.098 E11.49924
G1 X35.475 Y43.054 E11.50199
G1 X35.398 Y42.948 E11.50852
G1 X35.062 Y42.356 E11.54249
G1 X34.799 Y41.728 E11.57645
G1 X34.611 Y41.074 E11.6104
G1 X34.501 Y40.402 E11.64437
G1 X34.47 Y39.802 E11.67435
G1 X34.47 Y37.983 E11.7651
G1 X34.207 Y37.665 E11.78569
G1 X33.838 Y37.093 E11.81965
G1 X33.539 Y36.481 E11.85363
G1 X33.314 Y35.839 E11.88757
G1 X33.165 Y35.174 E11.92157
G1 X33.09 Y34.243 E11.96817
G1 X33.09 Y29.147 E12.22241
G1 X33.13 Y28.467 E12.25639
G1 X33.249 Y27.797 E12.29034
G1 X33.446 Y27.145 E12.32432
G1 X33.718 Y26.521 E12.35828
G1 X34.062 Y25.933 E12.39227
G0 F3600 X34.46 Y26.059
G1 F1800 X34.868 Y25.544 E12.42505
G1 X35.335 Y25.082 E12.45782
G1 X35.855 Y24.681 E12.49058
G1 X36.419 Y24.345 E12.52334
G1 X37.021 Y24.081 E12.55613
G1 X37.65 Y23.891 E12.58891
G1 X38.297 Y23.78 E12.62166
G1 X38.89 Y23.747 E12.65129
G1 X39.802 Y23.747 E12.69679
G1 X40.174 Y23.714 E12.71542
G1 X42.145 Y23.713 E12.81376
G1 X42.751 Y23.592 E12.84459
G1 X43.406 Y23.544 E12.87735
G1 X44.062 Y23.574 E12.91012
G1 X44.71 Y23.685 E12.94292
G1 X45.339 Y23.873 E12.97567
G1 X45.622 Y23.97 E12.99059
G1 X46.268 Y24.089 E13.02337
G1 X46.895 Y24.286 E13.05615
G1 X47.493 Y24.558 E13.08893
G1 X48.054 Y24.9 E13.12171
G1 X48.569 Y25.308 E13.15449
G1 X49.031 Y25.775 E13.18726
G1 X49.432 Y26.295 E13.22002
G1 X49.768 Y26.859 E13.25278
G1 X50.032 Y27.461 E13.28557
G1 X50.222 Y28.09 E13.31835
G1 X50.333 Y28.737 E13.3511
G1 X50.366 Y29.33 E13.38073
G1 X50.366 Y34.059 E13.61666
G1 X50.326 Y34.715 E13.64945
G1 X50.207 Y35.361 E13.68222
G1 X50.01 Y35.988 E13.71501
G1 X49.738 Y36.586 E13.74779
G1 X49.396 Y37.147 E13.78057
G1 X48.988 Y37.662 E13.81335
G1 X48.67 Y37.977 E13.83568
G1 X48.67 Y39.795 E13.92638
G1 X48.63 Y40.451 E13.95917
G1 X48.567 Y40.795 E13.97661
G1 X73.973 Y40.795 E15.24413
G1 X73.903 Y40.388 E15.26473
G1 X73.87 Y39.795 E15.29436
G1 X73.87 Y37.979 E15.38496
G1 X73.509 Y37.614 E15.41057
G1 X73.108 Y37.094 E15.44333
G1 X72.772 Y36.53 E15.47609
G1 X72.508 Y35.928 E15.50888
G1 X72.318 Y35.299 E15.54166
G1 X72.207 Y34.652 E15.57441
G1 X72.174 Y34.059 E15.60404
G1 X72.174 Y29.33 E15.83997
G1 X72.214 Y28.674 E15.87276
G1 X72.333 Y28.028 E15.90553
G1 X72.53 Y27.401 E15.93832
G1 X72.802 Y26.803 E15.9711
G1 X73.144 Y26.242 E16.00388
G1 X73.552 Y25.727 E16.03666
G1 X74.019 Y25.265 E16.06943
G1 X74.539 Y24.864 E16.10219
G1 X75.103 Y24.528 E16.13494
G1 X75.705 Y24.264 E16.16774
G1 X76.334 Y24.074 E16.20052
G1 X76.991 Y23.962 E16.23377
G1 X77.479 Y23.78 E16.25976
G1 X78.118 Y23.626 E16.29255
G1 X78.77 Y23.551 E16.32529
G1 X79.427 Y23.555 E16.35807
G1 X80.079 Y23.64 E16.39087
G1 X80.366 Y23.714 E16.40566
G1 X82.151 Y23.713 E16.49471
G1 X82.692 Y23.746 E16.52176
G1 X83.65 Y23.746 E16.56955
G1 X84.306 Y23.786 E16.60234
G1 X84.952 Y23.905 E16.63511
G1 X85.579 Y24.102 E16.6679
G1 X86.177 Y24.374 E16.70067
G1 X86.738 Y24.716 E16.73345
G1 X87.253 Y25.124 E16.76623
G1 X87.715 Y25.591 E16.79901
G1 X88.116 Y26.111 E16.83177
G1 X88.452 Y26.675 E16.86452
G1 X88.716 Y27.277 E16.89732
G1 X88.906 Y27.906 E16.9301
G1 X89.017 Y28.553 E16.96285
G1 X89.05 Y29.146 E16.99248
G1 X89.05 Y34.242 E17.24672
G1 X89.01 Y34.898 E17.27951
G1 X88.891 Y35.544 E17.31228
G1 X88.694 Y36.171 E17.34507
G1 X88.422 Y36.769 E17.37784
G1 X88.08 Y37.33 E17.41062
G1 X87.67 Y37.847 E17.44354
G1 X87.67 Y39.802 E17.54108
G1 X87.63 Y40.458 E17.57387
G1 X87.511 Y41.104 E17.60664
G1 X87.314 Y41.731 E17.63943
G1 X87.042 Y42.329 E17.6722
G1 X86.7 Y42.89 E17.70498
G1 X86.57 Y43.054 E17.71542
G1 X86.896 Y43.527 E17.74408
G1 X87.2 Y44.109 E17.77684
G1 X87.431 Y44.724 E17.80962
G1 X87.586 Y45.363 E17.84242
G1 X87.67 Y46.312 E17.88995
G1 X87.669 Y61.698 E18.65756
G1 X87.634 Y62.314 E18.68834
G1 X87.597 Y62.636 E18.70451
G1 X87.466 Y63.35 E18.74073
G1 X87.222 Y64.115 E18.78079
G1 X86.944 Y64.77 E18.81629
G1 X86.686 Y65.228 E18.84252
G1 X86.517 Y65.497 E18.85836
G1 X86.15 Y66.012 E18.88991
G1 X85.751 Y66.457 E18.91973
G1 X85.533 Y66.675 E18.93511
G1 X85.104 Y67.061 E18.96391
G1 X84.575 Y67.441 E18.9964
G1 X84.308 Y67.609 E19.01214
G1 X83.827 Y67.878 E19.03963
G1 X83.197 Y68.145 E19.07377
G1 X82.425 Y68.391 E19.11419
G1 X81.711 Y68.522 E19.15041
G1 X81.389 Y68.559 E19.16658
G1 X80.774 Y68.594 E19.19731
G1 X79.48 Y68.594 E19.26187
G1 X79.48 Y72.567 E19.46008
G1 X79.463 Y72.997 E19.48155
G1 X79.402 Y73.761 E19.51979
G1 X79.375 Y74.017 E19.53263
G1 X79.266 Y74.614 E19.56291
G1 X79.083 Y75.372 E19.60181
G1 X78.821 Y76.177 E19.64405
G1 X78.519 Y76.904 E19.68332
G1 X78.131 Y77.662 E19.72581
G1 X77.72 Y78.33 E19.76494
G1 X77.235 Y78.998 E19.80612
G1 X76.73 Y79.592 E19.84502
G1 X76.433 Y79.913 E19.86684
G1 X71.302 Y85.041 E20.22875
G1 X70.981 Y85.341 E20.25067
G1 X70.384 Y85.849 E20.28978
G1 X69.716 Y86.334 E20.33096
G1 X69.052 Y86.743 E20.36987
G1 X68.292 Y87.132 E20.41247
G1 X67.558 Y87.437 E20.45212
G1 X66.746 Y87.701 E20.49472
G1 X65.979 Y87.885 E20.53407
G1 X65.145 Y88.017 E20.5762
G1 X64.375 Y88.078 E20.61473
G1 X63.949 Y88.095 E20.636
G1 X58.59 Y88.095 E20.90336
G1 X58.158 Y88.078 E20.92493
G1 X57.386 Y88.016 E20.96357
G1 X57.132 Y87.989 E20.97632
G1 X56.532 Y87.879 E21.00675
G1 X55.78 Y87.697 E21.04535
G1 X54.973 Y87.433 E21.08771
G1 X54.246 Y87.13 E21.127
G1 X53.491 Y86.744 E21.16931
G1 X52.819 Y86.33 E21.20869
G1 X52.15 Y85.844 E21.24994
G1 X51.558 Y85.34 E21.28873
G1 X51.24 Y85.046 E21.31034
G1 X46.183 Y79.989 E21.66714
G1 X45.81 Y79.592 E21.69431
G1 X45.305 Y78.998 E21.73321
G1 X44.82 Y78.33 E21.77439
G1 X44.409 Y77.662 E21.81352
G1 X44.021 Y76.904 E21.85601
G1 X43.719 Y76.177 E21.89528
G1 X43.456 Y75.37 E21.93763
G1 X43.27 Y74.598 E21.97724
G1 X43.137 Y73.756 E22.01977
G1 X43.077 Y72.992 E22.05801
G1 X43.06 Y72.569 E22.07913
G1 X43.06 Y68.594 E22.27744
G1 X41.766 Y68.594 E22.342
G1 X41.152 Y68.559 E22.37268
G1 X40.829 Y68.522 E22.3889
G1 X40.114 Y68.391 E22.42517
G1 X39.634 Y68.247 E22.45017
G1 X39.338 Y68.143 E22.46582
G1 X38.693 Y67.868 E22.5008
G1 X38.207 Y67.592 E22.52869
G1 X37.926 Y67.413 E22.54531
G1 X37.394 Y67.027 E22.5781
G1 X36.801 Y66.471 E22.61865
G1 X36.339 Y65.951 E22.65336
G1 X35.997 Y65.461 E22.68317
G1 X35.597 Y64.773 E22.72287
G1 X35.319 Y64.117 E22.75842
G1 X35.074 Y63.35 E22.79859
G1 X34.943 Y62.634 E22.8349
G1 X34.905 Y62.302 E22.85158
G1 X34.87 Y61.688 E22.88226
G1 X34.87 Y46.312 E23.64937
G1 X34.91 Y45.656 E23.68216
G1 X35.029 Y45.01 E23.71493
G1 X35.226 Y44.383 E23.74772
G1 X35.498 Y43.785 E23.78049
G1 X35.84 Y43.224 E23.81327
G1 X35.971 Y43.067 E23.82347
G1 X35.624 Y42.555 E23.85433
G1 X35.324 Y41.97 E23.88713
G1 X35.098 Y41.354 E23.91987
G1 X34.948 Y40.714 E23.95266
G1 X34.87 Y39.802 E23.99833
G1 X34.87 Y37.843 E24.09606
G1 X34.825 Y37.798 E24.09924
G1 X34.424 Y37.278 E24.132
G1 X34.088 Y36.714 E24.16475
G1 X33.824 Y36.112 E24.19755
G1 X33.634 Y35.483 E24.23033
G1 X33.523 Y34.836 E24.26308
G1 X33.49 Y34.243 E24.29271
G1 X33.49 Y29.147 E24.54695
G1 X33.53 Y28.491 E24.57974
G1 X33.649 Y27.845 E24.61251
G1 X33.846 Y27.218 E24.6453
G1 X34.118 Y26.62 E24.67807
G1 X34.46 Y26.059 E24.71085
G0 F3600 X34.857 Y26.191
G1 F1800 X35.263 Y25.706 E24.74241
G1 X35.726 Y25.276 E24.77393
G1 X36.24 Y24.907 E24.8055
G1 X36.796 Y24.607 E24.83702
G1 X37.385 Y24.379 E24.86853
G1 X37.999 Y24.227 E24.90009
G1 X38.89 Y24.147 E24.94472
G1 X39.742 Y24.147 E24.98723
G1 X40.174 Y24.114 E25.00884
G1 X42.194 Y24.113 E25.10962
G1 X42.231 Y24.101 E25.11156
G1 X42.852 Y23.983 E25.1431
G1 X43.483 Y23.943 E25.17464
G1 X44.114 Y23.983 E25.20618
G1 X44.735 Y24.103 E25.23774
G1 X45.335 Y24.3 E25.26924
G1 X45.465 Y24.362 E25.27643
G1 X45.597 Y24.37 E25.28303
G1 X46.218 Y24.489 E25.31457
G1 X46.818 Y24.686 E25.34608
G1 X47.39 Y24.957 E25.37766
G1 X47.922 Y25.297 E25.40916
G1 X48.407 Y25.703 E25.44071
G1 X48.837 Y26.166 E25.47224
G1 X49.206 Y26.68 E25.5038
G1 X49.506 Y27.236 E25.53532
G1 X49.734 Y27.825 E25.56683
G1 X49.886 Y28.439 E25.59839
G1 X49.966 Y29.33 E25.64302
G1 X49.966 Y34.059 E25.87895
G1 X49.926 Y34.69 E25.9105
G1 X49.807 Y35.311 E25.94204
G1 X49.61 Y35.911 E25.97355
G1 X49.339 Y36.483 E26.00513
G1 X48.999 Y37.015 E26.03663
G1 X48.593 Y37.5 E26.06818
G1 X48.27 Y37.8 E26.09017
G1 X48.27 Y39.795 E26.18971
G1 X48.23 Y40.426 E26.22125
G1 X48.111 Y41.047 E26.25279
G1 X48.062 Y41.195 E26.26057
G1 X74.476 Y41.195 E27.57837
G1 X74.35 Y40.686 E27.60453
G1 X74.27 Y39.795 E27.64916
G1 X74.27 Y37.801 E27.74864
G1 X74.133 Y37.686 E27.75757
G1 X73.703 Y37.223 E27.78909
G1 X73.334 Y36.709 E27.82066
G1 X73.034 Y36.153 E27.85218
G1 X72.806 Y35.564 E27.88369
G1 X72.654 Y34.95 E27.91525
G1 X72.574 Y34.059 E27.95988
G1 X72.574 Y29.33 E28.19581
G1 X72.614 Y28.699 E28.22735
G1 X72.733 Y28.078 E28.2589
G1 X72.93 Y27.478 E28.2904
G1 X73.201 Y26.906 E28.32198
G1 X73.541 Y26.374 E28.35348
G1 X73.947 Y25.889 E28.38504
G1 X74.41 Y25.459 E28.41656
G1 X74.924 Y25.09 E28.44813
G1 X75.48 Y24.79 E28.47965
G1 X76.069 Y24.562 E28.51116
G1 X76.683 Y24.41 E28.54272
G1 X77.092 Y24.347 E28.56336
G1 X77.688 Y24.135 E28.59492
G1 X78.305 Y24 E28.62643
G1 X78.935 Y23.945 E28.65798
G1 X79.567 Y23.969 E28.68954
G1 X80.19 Y24.072 E28.72104
G1 X80.323 Y24.114 E28.728
G1 X82.151 Y24.113 E28.8192
G1 X82.672 Y24.146 E28.84524
G1 X83.65 Y24.146 E28.89403
G1 X84.281 Y24.186 E28.92558
G1 X84.902 Y24.305 E28.95712
G1 X85.502 Y24.502 E28.98863
G1 X86.074 Y24.773 E29.02021
G1 X86.606 Y25.113 E29.05171
G1 X87.091 Y25.519 E29.08326
G1 X87.521 Y25.982 E29.11479
G1 X87.89 Y26.496 E29.14635
G1 X88.19 Y27.052 E29.17787
G1 X88.418 Y27.641 E29.20938
G1 X88.57 Y28.255 E29.24094
G1 X88.65 Y29.146 E29.28557
G1 X88.65 Y34.242 E29.53981
G1 X88.61 Y34.873 E29.57136
G1 X88.491 Y35.494 E29.6029
G1 X88.294 Y36.094 E29.63441
G1 X88.023 Y36.666 E29.66599
G1 X87.683 Y37.198 E29.69749
G1 X87.27 Y37.69 E29.72953
G1 X87.27 Y39.802 E29.8349
G1 X87.23 Y40.433 E29.86645
G1 X87.111 Y41.054 E29.89799
G1 X86.914 Y41.654 E29.9295
G1 X86.643 Y42.226 E29.96108
G1 X86.303 Y42.758 E29.99257
G1 X86.053 Y43.057 E30.01202
