;FLAVOR:Repetier
;TIME:15732
;MINX:11.11
;MINY:17.912
;MINZ:0.3
;MAXX:110.729
;MAXY:106.531
;MAXZ:24
;Generated with Cura_SteamEngine 4.13.0
M190 S66
M104 S210
M109 S210
M82 ;absolute extrusion mode
G28 ;Home
G1 Z15.0 F6000 ;Move the platform down 15mm
;Prime the extruder
G92 E0
G1 F200 E3
G92 E0
G92 E0
G92 E0
G1 F1500 E-6.5
;LAYER_COUNT:238
;LAYER:0
M107
G0 F3600 X13.773 Y19.212 Z0.3
;TYPE:SKIRT
G1 F1500 E0
G1 F1800 X14.347 Y18.846 E0.03396
G1 X14.975 Y18.544 E0.06873
G1 X15.439 Y18.354 E0.09374
G1 X16.083 Y18.133 E0.12771
G1 X16.54 Y18.026 E0.15113
G1 X17.214 Y17.932 E0.18508
G1 X17.677 Y17.913 E0.2082
G1 X104.153 Y17.912 E4.5225
G1 X104.872 Y17.957 E4.55844
G1 X104.904 Y17.961 E4.56005
G1 X105.574 Y18.085 E4.59405
G1 X106.231 Y18.279 E4.62822
G1 X106.868 Y18.519 E4.66219
G1 X107.365 Y18.771 E4.68999
G1 X107.402 Y18.792 E4.69211
G1 X107.973 Y19.162 E4.72605
G1 X108.409 Y19.516 E4.75407
G1 X108.678 Y19.757 E4.77209
G1 X109.158 Y20.24 E4.80606
G1 X109.577 Y20.777 E4.84005
G1 X109.862 Y21.231 E4.86679
G1 X110.167 Y21.839 E4.90072
G1 X110.399 Y22.48 E4.93473
G1 X110.585 Y23.254 E4.97445
G1 X110.702 Y24.012 E5.01271
G1 X110.726 Y24.537 E5.03893
G1 X110.729 Y99.956 E8.8016
G1 X110.684 Y100.675 E8.83754
G1 X110.68 Y100.707 E8.83915
G1 X110.556 Y101.377 E8.87315
G1 X110.361 Y102.038 E8.90753
G1 X110.119 Y102.675 E8.94153
G1 X109.876 Y103.157 E8.96846
G1 X109.511 Y103.731 E9.00239
G1 X109.126 Y104.21 E9.03305
G1 X108.885 Y104.479 E9.05107
G1 X108.402 Y104.959 E9.08504
G1 X107.865 Y105.378 E9.11902
G1 X107.44 Y105.646 E9.14409
G1 X106.833 Y105.955 E9.17807
G1 X106.195 Y106.191 E9.21201
G1 X105.379 Y106.389 E9.2539
G1 X104.627 Y106.504 E9.29186
G1 X104.103 Y106.528 E9.31803
G1 X79.037 Y106.531 E10.56857
G1 X78.357 Y106.491 E10.60256
G1 X77.687 Y106.372 E10.63651
G1 X77.035 Y106.175 E10.67049
G1 X76.411 Y105.903 E10.70445
G1 X75.823 Y105.56 E10.73841
G1 X75.279 Y105.15 E10.7724
G1 X74.818 Y104.715 E10.80402
G1 X74.418 Y104.265 E10.83406
G1 X74.02 Y104.715 E10.86403
G1 X73.903 Y104.832 E10.87228
G1 X73.394 Y105.285 E10.90628
G1 X72.836 Y105.674 E10.94021
G1 X72.236 Y105.996 E10.97419
G1 X71.602 Y106.245 E11.00817
G1 X70.943 Y106.418 E11.04216
G1 X70.269 Y106.512 E11.07611
G1 X69.802 Y106.531 E11.09943
G1 X17.678 Y106.529 E13.69991
G1 X16.809 Y106.464 E13.74338
G1 X16.776 Y106.459 E13.74505
G1 X15.914 Y106.26 E13.78918
G1 X15.607 Y106.164 E13.80523
G1 X14.97 Y105.923 E13.83921
G1 X14.46 Y105.664 E13.86775
G1 X14.425 Y105.644 E13.86976
G1 X13.855 Y105.272 E13.90372
G1 X13.458 Y104.95 E13.92922
G1 X13.187 Y104.71 E13.94728
G1 X12.704 Y104.229 E13.98129
G1 X12.282 Y103.696 E14.0152
G1 X11.985 Y103.225 E14.04298
G1 X11.955 Y103.172 E14.04602
G1 X11.654 Y102.561 E14.08
G1 X11.428 Y101.919 E14.11396
G1 X11.256 Y101.196 E14.15104
G1 X11.142 Y100.484 E14.18701
G1 X11.113 Y99.907 E14.21583
G1 X11.11 Y57.489 E16.33208
G1 X11.15 Y56.81 E16.36601
G1 X11.269 Y56.139 E16.40001
G1 X11.466 Y55.488 E16.43394
G1 X11.738 Y54.863 E16.46795
G1 X12.082 Y54.275 E16.50193
G1 X12.492 Y53.732 E16.53588
G1 X12.926 Y53.271 E16.56747
G1 X13.435 Y52.818 E16.60146
G1 X13.993 Y52.429 E16.6354
G1 X14.593 Y52.107 E16.66937
G1 X15.227 Y51.858 E16.70335
G1 X15.886 Y51.685 E16.73734
G1 X16.56 Y51.591 E16.7713
G1 X17.027 Y51.572 E16.79461
G1 X17.869 Y51.572 E16.83662
G1 X17.869 Y33.972 E17.71469
G1 X17.027 Y33.972 E17.7567
G1 X16.347 Y33.932 E17.79068
G1 X15.677 Y33.813 E17.82463
G1 X15.025 Y33.616 E17.85861
G1 X14.401 Y33.344 E17.89257
G1 X13.813 Y33 E17.92656
G1 X13.269 Y32.59 E17.96054
G1 X12.809 Y32.156 E17.9921
G1 X12.356 Y31.647 E18.02609
G1 X11.967 Y31.089 E18.06003
G1 X11.645 Y30.489 E18.094
G1 X11.396 Y29.855 E18.12798
G1 X11.223 Y29.196 E18.16197
G1 X11.129 Y28.522 E18.19592
G1 X11.11 Y28.053 E18.21934
G1 X11.111 Y24.587 E18.39226
G1 X11.151 Y23.908 E18.42619
G1 X11.271 Y23.237 E18.4602
G1 X11.292 Y23.108 E18.46672
G1 X11.432 Y22.55 E18.49542
G1 X11.443 Y22.514 E18.4973
G1 X11.68 Y21.876 E18.53126
G1 X11.994 Y21.25 E18.5662
G1 X12.346 Y20.667 E18.60017
G1 X12.765 Y20.13 E18.63416
G1 X13.196 Y19.689 E18.66492
G1 X13.246 Y19.643 E18.66831
G1 X13.773 Y19.212 E18.70227
G0 F3600 X14.027 Y19.522
G1 F1800 X14.583 Y19.173 E18.73503
G1 X15.127 Y18.914 E18.76508
G1 X15.591 Y18.724 E18.7901
G1 X16.213 Y18.512 E18.82288
G1 X16.618 Y18.418 E18.84363
G1 X17.269 Y18.328 E18.87641
G1 X17.677 Y18.313 E18.89678
G1 X104.153 Y18.312 E23.21109
G1 X104.823 Y18.354 E23.24458
G1 X104.855 Y18.358 E23.24619
G1 X105.795 Y18.562 E23.29418
G1 X106.112 Y18.661 E23.31075
G1 X106.726 Y18.894 E23.34351
G1 X107.204 Y19.14 E23.37033
G1 X107.755 Y19.498 E23.40311
G1 X108.411 Y20.055 E23.44605
G1 X108.873 Y20.522 E23.47882
G1 X109.275 Y21.042 E23.51161
G1 X109.515 Y21.43 E23.53437
G1 X109.808 Y22.018 E23.56715
G1 X110.109 Y22.955 E23.61625
G1 X110.195 Y23.341 E23.63598
G1 X110.304 Y24.048 E23.67167
G1 X110.326 Y24.537 E23.69609
G1 X110.329 Y99.956 E27.45876
G1 X110.287 Y100.626 E27.49225
G1 X110.283 Y100.658 E27.49386
G1 X110.078 Y101.602 E27.54205
G1 X109.979 Y101.918 E27.55857
G1 X109.745 Y102.532 E27.59136
G1 X109.526 Y102.962 E27.61543
G1 X109.173 Y103.516 E27.6482
G1 X108.828 Y103.943 E27.67559
G1 X108.587 Y104.212 E27.69361
G1 X108.12 Y104.674 E27.72638
G1 X107.6 Y105.076 E27.75917
G1 X107.238 Y105.301 E27.78044
G1 X106.652 Y105.598 E27.81322
G1 X106.034 Y105.821 E27.84599
G1 X105.293 Y105.998 E27.884
G1 X104.591 Y106.106 E27.91944
G1 X104.103 Y106.128 E27.94381
G1 X79.037 Y106.131 E29.19436
G1 X78.381 Y106.091 E29.22714
G1 X77.735 Y105.972 E29.25992
G1 X77.108 Y105.775 E29.2927
G1 X76.51 Y105.504 E29.32546
G1 X75.949 Y105.162 E29.35824
G1 X75.218 Y104.549 E29.40583
G1 X75.101 Y104.432 E29.41409
G1 X74.665 Y103.94 E29.44689
G1 X74.421 Y103.585 E29.46838
G1 X74.349 Y103.702 E29.47523
G1 X73.737 Y104.432 E29.52276
G1 X73.62 Y104.549 E29.53101
G1 X73.128 Y104.985 E29.56381
G1 X72.587 Y105.357 E29.59656
G1 X72.005 Y105.661 E29.62932
G1 X71.39 Y105.892 E29.6621
G1 X70.751 Y106.047 E29.6949
G1 X69.802 Y106.131 E29.74243
G1 X17.678 Y106.129 E32.34291
G1 X16.869 Y106.068 E32.38339
G1 X16.836 Y106.063 E32.38505
G1 X16.033 Y105.878 E32.42616
G1 X15.726 Y105.782 E32.44221
G1 X15.112 Y105.548 E32.47499
G1 X14.659 Y105.317 E32.50036
G1 X14.624 Y105.297 E32.50237
G1 X14.074 Y104.936 E32.5352
G1 X13.452 Y104.411 E32.5758
G1 X12.987 Y103.946 E32.60861
G1 X12.583 Y103.428 E32.64139
G1 X12.303 Y102.975 E32.66795
G1 X12.014 Y102.385 E32.70073
G1 X11.733 Y101.496 E32.74725
G1 X11.646 Y101.108 E32.76708
G1 X11.54 Y100.444 E32.80063
G1 X11.513 Y99.907 E32.82746
G1 X11.51 Y57.489 E34.9437
G1 X11.55 Y56.834 E34.97644
G1 X11.669 Y56.188 E35.00921
G1 X11.866 Y55.561 E35.042
G1 X12.137 Y54.963 E35.07475
G1 X12.48 Y54.402 E35.10756
G1 X13.092 Y53.671 E35.15512
G1 X13.209 Y53.554 E35.16338
G1 X13.701 Y53.118 E35.19617
G1 X14.242 Y52.746 E35.22893
G1 X14.824 Y52.442 E35.26169
G1 X15.439 Y52.211 E35.29446
G1 X16.078 Y52.056 E35.32727
G1 X17.027 Y51.972 E35.3748
G1 X18.269 Y51.972 E35.43676
G1 X18.269 Y33.572 E36.35474
G1 X17.027 Y33.572 E36.41671
G1 X16.371 Y33.532 E36.44949
G1 X15.725 Y33.413 E36.48227
G1 X15.098 Y33.216 E36.51505
G1 X14.5 Y32.944 E36.54783
G1 X13.939 Y32.602 E36.58061
G1 X13.209 Y31.99 E36.62813
G1 X13.092 Y31.873 E36.63639
G1 X12.656 Y31.381 E36.66919
G1 X12.284 Y30.84 E36.70194
G1 X11.98 Y30.258 E36.7347
G1 X11.749 Y29.643 E36.76748
G1 X11.594 Y29.004 E36.80028
G1 X11.51 Y28.053 E36.84791
G1 X11.511 Y24.587 E37.02083
G1 X11.551 Y23.932 E37.05357
G1 X11.671 Y23.286 E37.08635
G1 X11.688 Y23.164 E37.0925
G1 X11.815 Y22.667 E37.11809
G1 X11.826 Y22.631 E37.11997
G1 X12.056 Y22.016 E37.15272
G1 X12.347 Y21.437 E37.18505
G1 X12.689 Y20.875 E37.21787
G1 X13.096 Y20.36 E37.25062
G1 X13.467 Y19.983 E37.27701
G1 X13.517 Y19.937 E37.2804
G1 X14.027 Y19.522 E37.3132
G0 F3600 X14.279 Y19.834
G1 F1800 X14.817 Y19.501 E37.34477
G1 X15.278 Y19.284 E37.37019
G1 X15.742 Y19.094 E37.39521
G1 X16.341 Y18.892 E37.42674
G1 X16.696 Y18.81 E37.44492
G1 X17.323 Y18.726 E37.47648
G1 X17.677 Y18.713 E37.49415
G1 X104.153 Y18.712 E41.80846
G1 X104.773 Y18.751 E41.83945
G1 X104.805 Y18.755 E41.84106
G1 X105.676 Y18.943 E41.88552
G1 X105.993 Y19.042 E41.90209
G1 X106.583 Y19.269 E41.93362
G1 X107.007 Y19.488 E41.95743
G1 X107.536 Y19.834 E41.98897
G1 X108.144 Y20.353 E42.02885
G1 X108.588 Y20.804 E42.06042
G1 X108.97 Y21.307 E42.09194
G1 X109.169 Y21.63 E42.11086
G1 X109.45 Y22.197 E42.14243
G1 X109.718 Y23.042 E42.18666
G1 X109.804 Y23.428 E42.20639
G1 X109.905 Y24.084 E42.2395
G1 X109.926 Y24.537 E42.26213
G1 X109.929 Y99.956 E46.0248
G1 X109.89 Y100.576 E46.05579
G1 X109.886 Y100.608 E46.0574
G1 X109.696 Y101.483 E46.10207
G1 X109.597 Y101.799 E46.11859
G1 X109.371 Y102.389 E46.15011
G1 X109.177 Y102.768 E46.17135
G1 X108.835 Y103.3 E46.20291
G1 X108.289 Y103.945 E46.24507
G1 X107.838 Y104.389 E46.27664
G1 X107.089 Y104.925 E46.32259
G1 X107.036 Y104.956 E46.32566
G1 X106.472 Y105.24 E46.35716
G1 X105.594 Y105.522 E46.40317
G1 X105.206 Y105.608 E46.423
G1 X104.555 Y105.707 E46.45585
G1 X104.103 Y105.728 E46.47842
G1 X79.037 Y105.731 E47.72897
G1 X78.406 Y105.691 E47.76051
G1 X77.785 Y105.572 E47.79206
G1 X77.184 Y105.375 E47.82361
G1 X76.613 Y105.105 E47.85512
G1 X76.08 Y104.764 E47.88669
G1 X75.5 Y104.267 E47.9248
G1 X75.383 Y104.15 E47.93305
G1 X74.966 Y103.675 E47.96459
G1 X74.611 Y103.152 E47.99612
G1 X74.418 Y102.772 E48.01739
G1 X74.292 Y103.038 E48.03207
G1 X73.952 Y103.57 E48.06357
G1 X73.455 Y104.15 E48.10168
G1 X73.338 Y104.267 E48.10993
G1 X72.863 Y104.684 E48.14147
G1 X72.34 Y105.039 E48.173
G1 X71.776 Y105.325 E48.20455
G1 X71.181 Y105.537 E48.23606
G1 X70.563 Y105.673 E48.26763
G1 X69.802 Y105.731 E48.30571
G1 X17.678 Y105.729 E50.90619
G1 X16.929 Y105.673 E50.94366
G1 X16.896 Y105.668 E50.94532
G1 X16.153 Y105.496 E50.98337
G1 X15.846 Y105.4 E50.99942
G1 X15.256 Y105.174 E51.03094
G1 X14.822 Y104.949 E51.05533
G1 X14.294 Y104.602 E51.08685
G1 X13.717 Y104.111 E51.12465
G1 X13.271 Y103.663 E51.15619
G1 X12.886 Y103.162 E51.18771
G1 X12.651 Y102.778 E51.21017
G1 X12.375 Y102.209 E51.24172
G1 X12.123 Y101.409 E51.28357
G1 X12.036 Y101.021 E51.30341
G1 X11.938 Y100.405 E51.33453
G1 X11.913 Y99.907 E51.3594
G1 X11.91 Y57.489 E53.47565
G1 X11.95 Y56.858 E53.50719
G1 X12.069 Y56.238 E53.53869
G1 X12.266 Y55.637 E53.57024
G1 X12.536 Y55.066 E53.60175
G1 X12.877 Y54.533 E53.63332
G1 X13.374 Y53.953 E53.67143
G1 X13.491 Y53.836 E53.67968
G1 X13.966 Y53.419 E53.71121
G1 X14.489 Y53.064 E53.74275
G1 X15.053 Y52.778 E53.7743
G1 X15.648 Y52.566 E53.80581
G1 X16.266 Y52.43 E53.83738
G1 X17.027 Y52.372 E53.87546
G1 X18.669 Y52.372 E53.95738
G1 X18.669 Y33.172 E54.91527
G1 X17.027 Y33.172 E54.99719
G1 X16.396 Y33.132 E55.02873
G1 X15.775 Y33.013 E55.06028
G1 X15.175 Y32.816 E55.09179
G1 X14.603 Y32.545 E55.12336
G1 X14.071 Y32.205 E55.15486
G1 X13.491 Y31.708 E55.19297
G1 X13.374 Y31.591 E55.20122
G1 X12.957 Y31.116 E55.23276
G1 X12.602 Y30.593 E55.26429
G1 X12.316 Y30.029 E55.29584
G1 X12.104 Y29.434 E55.32736
G1 X11.968 Y28.816 E55.35893
G1 X11.91 Y28.054 E55.39705
G1 X11.911 Y24.588 E55.56997
G1 X11.951 Y23.957 E55.60152
G1 X12.061 Y23.388 E55.63043
G1 X12.197 Y22.784 E55.66132
G1 X12.208 Y22.748 E55.66319
G1 X12.568 Y21.875 E55.71031
G1 X12.701 Y21.623 E55.72452
G1 X13.031 Y21.084 E55.75605
G1 X13.426 Y20.591 E55.78757
G1 X13.788 Y20.231 E55.81304
G1 X14.279 Y19.834 E55.84454
G0 F3600 X14.531 Y20.146
G1 F1800 X15.049 Y19.831 E55.87479
G1 X15.43 Y19.654 E55.89575
G1 X15.894 Y19.464 E55.92076
G1 X16.735 Y19.21 E55.96459
G1 X16.775 Y19.202 E55.96663
G1 X17.677 Y19.113 E56.01185
G1 X104.153 Y19.112 E60.32615
G1 X104.724 Y19.148 E60.3547
G1 X104.756 Y19.152 E60.3563
G1 X105.556 Y19.325 E60.39714
G1 X105.873 Y19.424 E60.41371
G1 X106.439 Y19.643 E60.44399
G1 X106.81 Y19.835 E60.46483
G1 X107.316 Y20.169 E60.49507
G1 X107.877 Y20.651 E60.53197
G1 X108.301 Y21.084 E60.56221
G1 X108.792 Y21.778 E60.60462
G1 X108.822 Y21.83 E60.60762
G1 X109.09 Y22.374 E60.63787
G1 X109.328 Y23.129 E60.67737
G1 X109.414 Y23.515 E60.6971
G1 X109.507 Y24.121 E60.72768
G1 X109.526 Y24.537 E60.74846
G1 X109.529 Y99.956 E64.51113
G1 X109.493 Y100.527 E64.53967
G1 X109.489 Y100.559 E64.54128
G1 X109.315 Y101.363 E64.58232
G1 X109.216 Y101.679 E64.59884
G1 X108.997 Y102.245 E64.62912
G1 X108.827 Y102.574 E64.6476
G1 X108.498 Y103.083 E64.67783
G1 X107.991 Y103.678 E64.71683
G1 X107.558 Y104.102 E64.74707
G1 X106.887 Y104.58 E64.78817
G1 X106.834 Y104.611 E64.79123
G1 X106.292 Y104.882 E64.82147
G1 X105.507 Y105.131 E64.86255
G1 X105.119 Y105.217 E64.88238
G1 X104.518 Y105.309 E64.91271
G1 X104.103 Y105.328 E64.93344
G1 X79.037 Y105.331 E66.18399
G1 X78.432 Y105.291 E66.21424
G1 X77.837 Y105.172 E66.24451
G1 X77.263 Y104.976 E66.27477
G1 X76.721 Y104.706 E66.30498
G1 X76.218 Y104.367 E66.33524
G1 X75.783 Y103.984 E66.36416
G1 X75.666 Y103.867 E66.37241
G1 X75.267 Y103.411 E66.40264
G1 X74.931 Y102.906 E66.4329
G1 X74.664 Y102.362 E66.46314
G1 X74.471 Y101.787 E66.4934
G1 X74.419 Y101.519 E66.50702
G1 X74.36 Y101.813 E66.52198
G1 X74.164 Y102.387 E66.55224
G1 X73.893 Y102.93 E66.58251
G1 X73.554 Y103.433 E66.61277
G1 X73.172 Y103.867 E66.64162
G1 X73.055 Y103.984 E66.64987
G1 X72.599 Y104.383 E66.6801
G1 X72.094 Y104.719 E66.71037
G1 X71.55 Y104.986 E66.7406
G1 X70.975 Y105.179 E66.77086
G1 X70.38 Y105.295 E66.8011
G1 X69.802 Y105.331 E66.82999
G1 X17.678 Y105.329 E69.43047
G1 X16.989 Y105.277 E69.46494
G1 X16.956 Y105.272 E69.46661
G1 X16.272 Y105.114 E69.50163
G1 X15.965 Y105.018 E69.51768
G1 X15.4 Y104.8 E69.54789
G1 X15.021 Y104.602 E69.56923
G1 X14.515 Y104.267 E69.5995
G1 X13.982 Y103.812 E69.63447
G1 X13.556 Y103.381 E69.6647
G1 X13.19 Y102.897 E69.69497
G1 X12.999 Y102.581 E69.71339
G1 X12.736 Y102.035 E69.74363
G1 X12.513 Y101.321 E69.78095
G1 X12.426 Y100.933 E69.80079
G1 X12.336 Y100.365 E69.82948
G1 X12.313 Y99.907 E69.85236
G1 X12.31 Y57.489 E71.9686
G1 X12.35 Y56.884 E71.99885
G1 X12.469 Y56.29 E72.02907
G1 X12.665 Y55.716 E72.05933
G1 X12.935 Y55.173 E72.08959
G1 X13.274 Y54.671 E72.11981
G1 X13.657 Y54.236 E72.14872
G1 X13.774 Y54.119 E72.15698
G1 X14.23 Y53.72 E72.18721
G1 X14.735 Y53.384 E72.21747
G1 X15.279 Y53.117 E72.2477
G1 X15.854 Y52.924 E72.27796
G1 X16.449 Y52.808 E72.3082
G1 X17.027 Y52.772 E72.3371
G1 X19.069 Y52.772 E72.43897
G1 X19.069 Y32.772 E73.43678
G1 X17.027 Y32.772 E73.53865
G1 X16.422 Y32.732 E73.5689
G1 X15.828 Y32.613 E73.59913
G1 X15.254 Y32.417 E73.62939
G1 X14.711 Y32.146 E73.65966
G1 X14.208 Y31.807 E73.68992
G1 X13.774 Y31.425 E73.71877
G1 X13.657 Y31.308 E73.72702
G1 X13.258 Y30.852 E73.75725
G1 X12.922 Y30.347 E73.78752
G1 X12.655 Y29.803 E73.81775
G1 X12.462 Y29.228 E73.84801
G1 X12.346 Y28.633 E73.87825
G1 X12.31 Y28.054 E73.90719
G1 X12.311 Y24.588 E74.08011
G1 X12.351 Y23.983 E74.11036
G1 X12.455 Y23.466 E74.13667
G1 X12.58 Y22.901 E74.16554
G1 X12.591 Y22.865 E74.16742
G1 X12.922 Y22.062 E74.21075
G1 X13.055 Y21.81 E74.22497
G1 X13.373 Y21.294 E74.25521
G1 X13.755 Y20.823 E74.28546
G1 X14.059 Y20.526 E74.30667
G1 X14.531 Y20.146 E74.3369
G0 F3600 X14.782 Y20.458
G1 F1800 X15.28 Y20.162 E74.3658
G1 X15.581 Y20.024 E74.38232
G1 X16.045 Y19.834 E74.40734
G1 X16.813 Y19.603 E74.44735
G1 X16.853 Y19.595 E74.44938
G1 X17.677 Y19.513 E74.49069
G1 X104.153 Y19.512 E78.805
G1 X104.674 Y19.544 E78.83104
G1 X104.706 Y19.548 E78.83265
G1 X105.437 Y19.707 E78.86997
G1 X105.754 Y19.806 E78.88654
G1 X106.294 Y20.016 E78.91545
G1 X106.612 Y20.183 E78.93337
G1 X107.095 Y20.503 E78.96227
G1 X107.611 Y20.949 E78.9963
G1 X108.014 Y21.364 E79.02516
G1 X108.446 Y21.978 E79.06261
G1 X108.476 Y22.03 E79.06561
G1 X108.73 Y22.551 E79.09453
G1 X108.937 Y23.216 E79.12927
G1 X109.023 Y23.602 E79.149
G1 X109.109 Y24.157 E79.17702
G1 X109.126 Y24.537 E79.196
G1 X109.129 Y99.956 E82.95867
G1 X109.097 Y100.477 E82.98471
G1 X109.093 Y100.509 E82.98632
G1 X108.933 Y101.244 E83.02385
G1 X108.834 Y101.56 E83.04037
G1 X108.497 Y102.344 E83.08294
G1 X108.477 Y102.38 E83.085
G1 X108.162 Y102.865 E83.11385
G1 X107.693 Y103.412 E83.1498
G1 X107.278 Y103.815 E83.17866
G1 X106.686 Y104.234 E83.21484
