;FLAVOR:Repetier
;TIME:15813
;MINX:9.926
;MINY:15.725
;MINZ:0.3
;MAXX:109.544
;MAXY:104.343
;MAXZ:24
;Generated with Cura_SteamEngine 4.13.0
M190 S66
M104 S210
M109 S210
M82 ;absolute extrusion mode
G28 ;Home
G1 Z15.0 F6000 ;Move the platform down 15mm
;Prime the extruder
G92 E0
G1 F200 E3
G92 E0
G92 E0
G92 E0
G1 F1500 E-6.5
;LAYER_COUNT:238
;LAYER:0
M107
G0 F3600 X12.588 Y17.024 Z0.3
;TYPE:SKIRT
G1 F1500 E0
G1 F1800 X13.162 Y16.658 E0.03396
G1 X13.784 Y16.358 E0.06842
G1 X14.249 Y16.167 E0.0935
G1 X14.893 Y15.946 E0.12746
G1 X15.453 Y15.819 E0.15611
G1 X15.493 Y15.812 E0.15814
G1 X16.493 Y15.725 E0.20822
G1 X102.969 Y15.725 E4.52252
G1 X103.711 Y15.773 E4.55962
G1 X103.742 Y15.777 E4.56118
G1 X104.713 Y15.988 E4.61075
G1 X105.03 Y16.086 E4.6273
G1 X105.668 Y16.325 E4.66129
G1 X106.18 Y16.583 E4.6899
G1 X106.217 Y16.604 E4.69202
G1 X106.788 Y16.974 E4.72597
G1 X107.224 Y17.328 E4.75399
G1 X107.493 Y17.569 E4.772
G1 X107.973 Y18.052 E4.80598
G1 X108.392 Y18.589 E4.83996
G1 X108.677 Y19.043 E4.8667
G1 X108.982 Y19.651 E4.90064
G1 X109.214 Y20.292 E4.93465
G1 X109.4 Y21.066 E4.97436
G1 X109.517 Y21.824 E5.01263
G1 X109.541 Y22.349 E5.03885
G1 X109.544 Y97.768 E8.80151
G1 X109.479 Y98.637 E8.84499
G1 X109.474 Y98.67 E8.84666
G1 X109.276 Y99.529 E8.89063
G1 X109.178 Y99.843 E8.90705
G1 X108.937 Y100.48 E8.94102
G1 X108.719 Y100.917 E8.96539
G1 X108.36 Y101.495 E8.99933
G1 X107.971 Y101.987 E9.03063
G1 X107.731 Y102.259 E9.04872
G1 X107.251 Y102.743 E9.08273
G1 X106.718 Y103.166 E9.11668
G1 X106.257 Y103.459 E9.14393
G1 X105.65 Y103.768 E9.17791
G1 X105.012 Y104.004 E9.21185
G1 X104.178 Y104.204 E9.25464
G1 X103.469 Y104.314 E9.29043
G1 X102.92 Y104.34 E9.31785
G1 X77.853 Y104.343 E10.56845
G1 X77.173 Y104.303 E10.60244
G1 X76.503 Y104.184 E10.63639
G1 X75.851 Y103.987 E10.67037
G1 X75.227 Y103.715 E10.70433
G1 X74.639 Y103.372 E10.73829
G1 X74.095 Y102.962 E10.77227
G1 X73.634 Y102.527 E10.8039
G1 X73.234 Y102.077 E10.83393
G1 X72.836 Y102.527 E10.86391
G1 X72.719 Y102.644 E10.87216
G1 X72.21 Y103.097 E10.90615
G1 X71.652 Y103.486 E10.94009
G1 X71.052 Y103.808 E10.97406
G1 X70.418 Y104.057 E11.00805
G1 X69.759 Y104.23 E11.04204
G1 X69.085 Y104.324 E11.07599
G1 X68.618 Y104.343 E11.09931
G1 X16.494 Y104.341 E13.69978
G1 X15.752 Y104.293 E13.73688
G1 X15.721 Y104.289 E13.73844
G1 X14.769 Y104.084 E13.78702
G1 X14.458 Y103.989 E13.80325
G1 X13.819 Y103.752 E13.83725
G1 X13.23 Y103.452 E13.87023
G1 X13.194 Y103.431 E13.87231
G1 X12.627 Y103.054 E13.90628
G1 X11.984 Y102.507 E13.94839
G1 X11.503 Y102.025 E13.98236
G1 X11.083 Y101.489 E14.01634
G1 X10.799 Y101.037 E14.04297
G1 X10.769 Y100.984 E14.04601
G1 X10.468 Y100.373 E14.07999
G1 X10.242 Y99.731 E14.11395
G1 X10.065 Y98.98 E14.15244
G1 X9.961 Y98.327 E14.18543
G1 X9.929 Y97.72 E14.21575
G1 X9.926 Y53.401 E16.42684
G1 X9.966 Y52.722 E16.46077
G1 X10.085 Y52.051 E16.49477
G1 X10.282 Y51.4 E16.5287
G1 X10.554 Y50.775 E16.56271
G1 X10.898 Y50.187 E16.5967
G1 X11.308 Y49.644 E16.63064
G1 X11.742 Y49.183 E16.66223
G1 X12.251 Y48.73 E16.69622
G1 X12.809 Y48.341 E16.73016
G1 X13.409 Y48.019 E16.76413
G1 X14.043 Y47.77 E16.79812
G1 X14.702 Y47.597 E16.83211
G1 X15.376 Y47.503 E16.86606
G1 X15.843 Y47.484 E16.88938
G1 X16.685 Y47.484 E16.93138
G1 X16.685 Y32.584 E17.67475
G1 X15.843 Y32.584 E17.71676
G1 X15.163 Y32.544 E17.75074
G1 X14.493 Y32.425 E17.78469
G1 X13.841 Y32.228 E17.81867
G1 X13.217 Y31.956 E17.85263
G1 X12.629 Y31.612 E17.88662
G1 X12.085 Y31.202 E17.9206
G1 X11.625 Y30.768 E17.95215
G1 X11.172 Y30.259 E17.98615
G1 X10.783 Y29.701 E18.02008
G1 X10.461 Y29.101 E18.05406
G1 X10.212 Y28.467 E18.08804
G1 X10.039 Y27.808 E18.12203
G1 X9.945 Y27.134 E18.15598
G1 X9.926 Y26.667 E18.1793
G1 X9.926 Y22.401 E18.39213
G1 X9.966 Y21.721 E18.42612
G1 X10.085 Y21.05 E18.46011
G1 X10.203 Y20.512 E18.48759
G1 X10.213 Y20.476 E18.48946
G1 X10.433 Y19.831 E18.52346
G1 X10.674 Y19.316 E18.55182
G1 X10.811 Y19.057 E18.56644
G1 X11.164 Y18.475 E18.6004
G1 X11.583 Y17.938 E18.63438
G1 X12.011 Y17.501 E18.6649
G1 X12.061 Y17.455 E18.66829
G1 X12.588 Y17.024 E18.70226
G0 F3600 X12.842 Y17.334
G1 F1800 X13.398 Y16.985 E18.73501
G1 X13.936 Y16.728 E18.76475
G1 X14.401 Y16.537 E18.78983
G1 X15.023 Y16.325 E18.82262
G1 X15.522 Y16.213 E18.84813
G1 X15.562 Y16.206 E18.85016
G1 X16.493 Y16.125 E18.89678
G1 X102.969 Y16.125 E23.21109
G1 X103.66 Y16.169 E23.24563
G1 X103.691 Y16.173 E23.24719
G1 X104.595 Y16.37 E23.29335
G1 X104.912 Y16.468 E23.3099
G1 X105.527 Y16.7 E23.3427
G1 X105.982 Y16.931 E23.36815
G1 X106.019 Y16.952 E23.37028
G1 X106.57 Y17.31 E23.40306
G1 X107.226 Y17.867 E23.44599
G1 X107.688 Y18.334 E23.47877
G1 X108.09 Y18.854 E23.51156
G1 X108.33 Y19.242 E23.53432
G1 X108.623 Y19.83 E23.56709
G1 X108.924 Y20.767 E23.61619
G1 X109.01 Y21.153 E23.63592
G1 X109.119 Y21.86 E23.67161
G1 X109.141 Y22.349 E23.69603
G1 X109.144 Y97.768 E27.4587
G1 X109.083 Y98.577 E27.49918
G1 X109.078 Y98.61 E27.50084
G1 X108.894 Y99.41 E27.5418
G1 X108.796 Y99.724 E27.55821
G1 X108.562 Y100.338 E27.59099
G1 X108.368 Y100.726 E27.61263
G1 X108.02 Y101.284 E27.64544
G1 X107.671 Y101.723 E27.67342
G1 X107.431 Y101.995 E27.69152
G1 X106.967 Y102.46 E27.72429
G1 X106.45 Y102.866 E27.75709
G1 X106.055 Y103.114 E27.78036
G1 X105.469 Y103.411 E27.81313
G1 X104.851 Y103.634 E27.84591
G1 X104.093 Y103.814 E27.88478
G1 X103.431 Y103.916 E27.9182
G1 X102.92 Y103.94 E27.94372
G1 X77.853 Y103.943 E29.19432
G1 X77.197 Y103.903 E29.2271
G1 X76.551 Y103.784 E29.25988
G1 X75.924 Y103.587 E29.29266
G1 X75.326 Y103.316 E29.32542
G1 X74.765 Y102.974 E29.3582
G1 X74.034 Y102.361 E29.40579
G1 X73.917 Y102.244 E29.41405
G1 X73.481 Y101.752 E29.44685
G1 X73.237 Y101.397 E29.46834
G1 X73.165 Y101.514 E29.47519
G1 X72.553 Y102.244 E29.52272
G1 X72.436 Y102.361 E29.53097
G1 X71.944 Y102.797 E29.56377
G1 X71.403 Y103.169 E29.59653
G1 X70.821 Y103.473 E29.62928
G1 X70.206 Y103.704 E29.66206
G1 X69.567 Y103.859 E29.69486
G1 X68.618 Y103.943 E29.74239
G1 X16.494 Y103.941 E32.34287
G1 X15.803 Y103.897 E32.37742
G1 X15.772 Y103.893 E32.37897
G1 X14.885 Y103.701 E32.42425
G1 X14.574 Y103.606 E32.44048
G1 X13.959 Y103.377 E32.47322
G1 X13.431 Y103.106 E32.50283
G1 X13.395 Y103.085 E32.5049
G1 X12.849 Y102.72 E32.53767
G1 X12.25 Y102.209 E32.57695
G1 X11.788 Y101.742 E32.60973
G1 X11.385 Y101.223 E32.64251
G1 X11.117 Y100.787 E32.66804
G1 X10.828 Y100.197 E32.70082
G1 X10.541 Y99.283 E32.74861
G1 X10.456 Y98.895 E32.76843
G1 X10.359 Y98.285 E32.79924
G1 X10.329 Y97.72 E32.82747
G1 X10.326 Y53.401 E35.03856
G1 X10.366 Y52.746 E35.07129
G1 X10.485 Y52.1 E35.10407
G1 X10.682 Y51.473 E35.13685
G1 X10.953 Y50.875 E35.16961
G1 X11.296 Y50.314 E35.20241
G1 X11.908 Y49.583 E35.24998
G1 X12.025 Y49.466 E35.25823
G1 X12.517 Y49.03 E35.29103
G1 X13.058 Y48.658 E35.32379
G1 X13.64 Y48.354 E35.35655
G1 X14.255 Y48.123 E35.38932
G1 X14.894 Y47.968 E35.42212
G1 X15.843 Y47.884 E35.46966
G1 X17.085 Y47.884 E35.53162
G1 X17.085 Y32.184 E36.3149
G1 X15.843 Y32.184 E36.37686
G1 X15.187 Y32.144 E36.40965
G1 X14.541 Y32.025 E36.44242
G1 X13.914 Y31.828 E36.47521
G1 X13.316 Y31.556 E36.50798
G1 X12.755 Y31.214 E36.54076
G1 X12.025 Y30.602 E36.58829
G1 X11.908 Y30.485 E36.59654
G1 X11.472 Y29.993 E36.62934
G1 X11.1 Y29.452 E36.6621
G1 X10.796 Y28.87 E36.69485
G1 X10.565 Y28.255 E36.72763
G1 X10.41 Y27.616 E36.76043
G1 X10.326 Y26.667 E36.80797
G1 X10.326 Y22.401 E37.0208
G1 X10.366 Y21.745 E37.05359
G1 X10.477 Y21.145 E37.08403
G1 X10.588 Y20.619 E37.11085
G1 X10.598 Y20.583 E37.11271
G1 X10.812 Y19.962 E37.14548
G1 X11.028 Y19.503 E37.17079
G1 X11.165 Y19.244 E37.18541
G1 X11.507 Y18.683 E37.21819
G1 X11.914 Y18.168 E37.25094
G1 X12.282 Y17.795 E37.27708
G1 X12.332 Y17.749 E37.28047
G1 X12.842 Y17.334 E37.31327
G0 F3600 X13.094 Y17.646
G1 F1800 X13.632 Y17.313 E37.34484
G1 X14.088 Y17.098 E37.36999
G1 X14.553 Y16.907 E37.39507
G1 X15.152 Y16.704 E37.42662
G1 X15.631 Y16.6 E37.45108
G1 X16.493 Y16.525 E37.49424
G1 X102.969 Y16.525 E41.80855
G1 X103.609 Y16.566 E41.84054
G1 X103.64 Y16.57 E41.8421
G1 X104.477 Y16.752 E41.88484
G1 X104.794 Y16.85 E41.90139
G1 X105.385 Y17.075 E41.93294
G1 X105.822 Y17.3 E41.95746
G1 X106.351 Y17.646 E41.989
G1 X106.959 Y18.165 E42.02888
G1 X107.403 Y18.616 E42.06046
G1 X107.785 Y19.119 E42.09197
G1 X107.984 Y19.442 E42.11089
G1 X108.265 Y20.009 E42.14247
G1 X108.533 Y20.854 E42.18669
G1 X108.619 Y21.24 E42.20642
G1 X108.72 Y21.896 E42.23954
G1 X108.741 Y22.349 E42.26216
G1 X108.744 Y97.768 E46.02483
G1 X108.688 Y98.517 E46.0623
G1 X108.683 Y98.55 E46.06397
G1 X108.512 Y99.291 E46.10191
G1 X108.414 Y99.605 E46.11832
G1 X108.188 Y100.195 E46.14984
G1 X108.016 Y100.535 E46.16885
G1 X107.68 Y101.071 E46.20041
G1 X107.131 Y101.73 E46.2432
G1 X106.684 Y102.177 E46.27474
G1 X106.184 Y102.563 E46.30625
G1 X105.853 Y102.769 E46.3257
G1 X105.289 Y103.053 E46.35721
G1 X104.396 Y103.338 E46.40397
G1 X104.007 Y103.423 E46.42384
G1 X103.393 Y103.517 E46.45483
G1 X102.92 Y103.54 E46.47845
G1 X77.853 Y103.543 E47.72905
G1 X77.222 Y103.503 E47.7606
G1 X76.601 Y103.384 E47.79214
G1 X76 Y103.187 E47.82369
G1 X75.429 Y102.917 E47.85521
G1 X74.896 Y102.576 E47.88677
G1 X74.316 Y102.079 E47.92488
G1 X74.199 Y101.962 E47.93314
G1 X73.782 Y101.487 E47.96467
G1 X73.427 Y100.964 E47.99621
G1 X73.234 Y100.584 E48.01747
G1 X73.108 Y100.85 E48.03215
G1 X72.768 Y101.382 E48.06365
G1 X72.271 Y101.962 E48.10176
G1 X72.154 Y102.079 E48.11001
G1 X71.679 Y102.496 E48.14155
G1 X71.156 Y102.851 E48.17308
G1 X70.592 Y103.137 E48.20463
G1 X69.997 Y103.349 E48.23615
G1 X69.379 Y103.485 E48.26772
G1 X68.618 Y103.543 E48.30579
G1 X16.494 Y103.541 E50.90627
G1 X15.854 Y103.5 E50.93826
G1 X15.823 Y103.496 E50.93982
G1 X15.002 Y103.319 E50.98172
G1 X14.691 Y103.224 E50.99795
G1 X14.1 Y103.001 E51.02946
G1 X13.633 Y102.761 E51.05566
G1 X13.597 Y102.74 E51.05774
G1 X13.072 Y102.387 E51.0893
G1 X12.516 Y101.91 E51.12585
G1 X12.072 Y101.46 E51.15739
G1 X11.689 Y100.958 E51.18889
G1 X11.465 Y100.59 E51.21038
G1 X11.189 Y100.021 E51.24193
G1 X10.932 Y99.197 E51.285
G1 X10.847 Y98.809 E51.30481
G1 X10.756 Y98.243 E51.33341
G1 X10.729 Y97.72 E51.35954
G1 X10.726 Y53.401 E53.57062
G1 X10.766 Y52.77 E53.60217
G1 X10.885 Y52.15 E53.63366
G1 X11.082 Y51.549 E53.66522
G1 X11.353 Y50.978 E53.69675
G1 X11.693 Y50.445 E53.72829
G1 X12.19 Y49.865 E53.7664
G1 X12.307 Y49.748 E53.77465
G1 X12.782 Y49.331 E53.80619
G1 X13.305 Y48.976 E53.83772
G1 X13.869 Y48.69 E53.86927
G1 X14.464 Y48.478 E53.90079
G1 X15.082 Y48.342 E53.93235
G1 X15.843 Y48.284 E53.97043
G1 X17.485 Y48.284 E54.05235
G1 X17.485 Y31.784 E54.87554
G1 X15.843 Y31.784 E54.95746
G1 X15.212 Y31.744 E54.989
G1 X14.591 Y31.625 E55.02055
G1 X13.991 Y31.428 E55.05206
G1 X13.419 Y31.157 E55.08363
G1 X12.887 Y30.817 E55.11513
G1 X12.307 Y30.32 E55.15324
G1 X12.19 Y30.203 E55.16149
G1 X11.773 Y29.728 E55.19303
G1 X11.418 Y29.205 E55.22456
G1 X11.132 Y28.641 E55.25611
G1 X10.92 Y28.046 E55.28763
G1 X10.784 Y27.428 E55.3192
G1 X10.726 Y26.667 E55.35727
G1 X10.726 Y22.401 E55.5701
G1 X10.766 Y21.77 E55.60165
G1 X10.868 Y21.238 E55.62867
G1 X10.973 Y20.726 E55.65475
G1 X10.983 Y20.69 E55.65661
G1 X11.191 Y20.093 E55.68815
G1 X11.518 Y19.431 E55.72499
G1 X11.849 Y18.892 E55.75655
G1 X12.244 Y18.399 E55.78806
G1 X12.603 Y18.043 E55.81329
G1 X13.094 Y17.646 E55.84479
G0 F3600 X13.346 Y17.958
G1 F1800 X13.864 Y17.643 E55.87503
G1 X14.24 Y17.468 E55.89573
G1 X14.705 Y17.277 E55.9208
G1 X15.28 Y17.084 E55.95106
G1 X15.7 Y16.994 E55.97249
G1 X16.493 Y16.925 E56.01221
G1 X102.969 Y16.925 E60.32651
G1 X103.558 Y16.963 E60.35596
G1 X103.589 Y16.967 E60.35752
G1 X104.359 Y17.134 E60.39683
G1 X104.676 Y17.232 E60.41338
G1 X105.242 Y17.449 E60.44362
G1 X105.625 Y17.647 E60.46513
G1 X106.131 Y17.981 E60.49538
G1 X106.692 Y18.463 E60.53228
G1 X107.116 Y18.896 E60.56252
G1 X107.607 Y19.59 E60.60493
G1 X107.637 Y19.642 E60.60792
G1 X107.905 Y20.186 E60.63818
G1 X108.143 Y20.941 E60.67767
G1 X108.229 Y21.327 E60.6974
G1 X108.322 Y21.933 E60.72799
G1 X108.341 Y22.349 E60.74877
G1 X108.344 Y97.768 E64.51143
G1 X108.292 Y98.457 E64.54591
G1 X108.287 Y98.49 E64.54757
G1 X108.13 Y99.171 E64.58244
G1 X108.032 Y99.485 E64.59885
G1 X107.684 Y100.31 E64.64352
G1 X107.665 Y100.345 E64.64551
G1 X107.341 Y100.857 E64.67574
G1 X106.831 Y101.465 E64.71533
G1 X106.401 Y101.893 E64.7456
G1 X105.704 Y102.393 E64.78839
G1 X105.651 Y102.424 E64.79146
G1 X105.109 Y102.695 E64.82169
G1 X104.311 Y102.947 E64.86344
G1 X103.922 Y103.032 E64.8833
G1 X103.355 Y103.119 E64.91192
G1 X102.92 Y103.14 E64.93365
G1 X77.853 Y103.143 E66.18425
G1 X77.248 Y103.103 E66.2145
G1 X76.653 Y102.984 E66.24477
G1 X76.079 Y102.788 E66.27503
G1 X75.537 Y102.518 E66.30524
G1 X75.034 Y102.179 E66.3355
G1 X74.599 Y101.796 E66.36442
G1 X74.482 Y101.679 E66.37267
G1 X74.083 Y101.223 E66.4029
G1 X73.747 Y100.718 E66.43316
G1 X73.48 Y100.174 E66.4634
G1 X73.287 Y99.599 E66.49366
G1 X73.235 Y99.331 E66.50728
G1 X73.176 Y99.625 E66.52224
G1 X72.98 Y100.199 E66.5525
G1 X72.709 Y100.742 E66.58277
G1 X72.37 Y101.245 E66.61303
G1 X71.988 Y101.679 E66.64188
G1 X71.871 Y101.796 E66.65013
G1 X71.415 Y102.195 E66.68036
G1 X70.91 Y102.531 E66.71063
G1 X70.366 Y102.798 E66.74086
G1 X69.791 Y102.991 E66.77112
G1 X69.196 Y103.107 E66.80136
G1 X68.618 Y103.143 E66.83025
G1 X16.494 Y103.141 E69.43073
G1 X15.905 Y103.103 E69.46018
G1 X15.874 Y103.099 E69.46174
G1 X15.119 Y102.936 E69.50027
G1 X14.808 Y102.841 E69.5165
G1 X14.241 Y102.626 E69.54675
G1 X13.798 Y102.394 E69.5717
G1 X13.296 Y102.055 E69.60192
G1 X12.783 Y101.612 E69.63573
G1 X12.358 Y101.179 E69.666
G1 X11.843 Y100.446 E69.7107
G1 X11.813 Y100.393 E69.71374
G1 X11.55 Y99.847 E69.74397
G1 X11.323 Y99.111 E69.7824
G1 X11.238 Y98.723 E69.80221
G1 X11.154 Y98.202 E69.82854
G1 X11.129 Y97.72 E69.85262
G1 X11.126 Y53.401 E72.0637
G1 X11.166 Y52.796 E72.09395
G1 X11.285 Y52.202 E72.12418
G1 X11.481 Y51.628 E72.15444
G1 X11.751 Y51.085 E72.18469
G1 X12.09 Y50.583 E72.21491
G1 X12.473 Y50.148 E72.24383
G1 X12.59 Y50.031 E72.25208
G1 X13.046 Y49.632 E72.28231
G1 X13.551 Y49.296 E72.31258
G1 X14.095 Y49.029 E72.34281
G1 X14.67 Y48.836 E72.37307
G1 X15.265 Y48.72 E72.40331
G1 X15.843 Y48.684 E72.4322
G1 X17.885 Y48.684 E72.53408
G1 X17.885 Y31.384 E73.39718
G1 X15.843 Y31.384 E73.49906
G1 X15.238 Y31.344 E73.52931
G1 X14.644 Y31.225 E73.55953
G1 X14.07 Y31.029 E73.58979
G1 X13.527 Y30.758 E73.62007
G1 X13.024 Y30.419 E73.65033
G1 X12.59 Y30.037 E73.67917
G1 X12.473 Y29.92 E73.68743
G1 X12.074 Y29.464 E73.71766
G1 X11.738 Y28.959 E73.74792
G1 X11.471 Y28.415 E73.77815
G1 X11.278 Y27.84 E73.80841
G1 X11.162 Y27.245 E73.83866
G1 X11.126 Y26.667 E73.86755
G1 X11.126 Y22.401 E74.08038
G1 X11.166 Y21.796 E74.11063
G1 X11.285 Y21.202 E74.14085
G1 X11.369 Y20.797 E74.16149
G1 X11.569 Y20.225 E74.19172
G1 X11.872 Y19.618 E74.22557
G1 X12.19 Y19.102 E74.25581
G1 X12.573 Y18.632 E74.28605
G1 X12.874 Y18.338 E74.30705
G1 X13.346 Y17.958 E74.33728
G0 F3600 X13.597 Y18.27
G1 F1800 X14.095 Y17.974 E74.36618
G1 X14.392 Y17.838 E74.38248
G1 X14.857 Y17.647 E74.40756
G1 X15.407 Y17.464 E74.43647
G1 X15.769 Y17.388 E74.45493
G1 X16.493 Y17.325 E74.49119
G1 X102.969 Y17.325 E78.80549
G1 X103.506 Y17.36 E78.83234
G1 X103.537 Y17.364 E78.8339
G1 X104.24 Y17.516 E78.86978
G1 X104.557 Y17.614 E78.88634
G1 X105.098 Y17.823 E78.91527
G1 X105.427 Y17.995 E78.93379
G1 X105.91 Y18.315 E78.9627
G1 X106.426 Y18.761 E78.99672
G1 X106.829 Y19.176 E79.02558
G1 X107.261 Y19.79 E79.06304
G1 X107.291 Y19.842 E79.06603
G1 X107.545 Y20.363 E79.09495
G1 X107.752 Y21.028 E79.1297
G1 X107.838 Y21.414 E79.14943
G1 X107.924 Y21.969 E79.17745
G1 X107.941 Y22.349 E79.19643
G1 X107.944 Y97.768 E82.95909
G1 X107.897 Y98.397 E82.99056
G1 X107.892 Y98.43 E82.99223
G1 X107.748 Y99.052 E83.02408
G1 X107.65 Y99.366 E83.04049
G1 X107.332 Y100.119 E83.08127
G1 X107.313 Y100.154 E83.08326
G1 X107.002 Y100.643 E83.11217
G1 X106.531 Y101.201 E83.1486
G1 X106.119 Y101.608 E83.17749
G1 X105.503 Y102.047 E83.21523
G1 X105.45 Y102.078 E83.21829
G1 X104.93 Y102.336 E83.24726
G1 X104.226 Y102.556 E83.28405
